; generated by PrusaSlicer 2.5.0+win64 on 2022-12-23 at 00:16:41 UTC


;
;

;
;
; 

; external perimeters extrusion width = 0.45mm
; perimeters extrusion width = 0.45mm
; infill extrusion width = 0.45mm
; solid infill extrusion width = 0.45mm
; top infill extrusion width = 0.40mm
; first layer extrusion width = 0.42mm

M73 P0 R6
M107
;TYPE:Custom
G90 ; use absolute coordinates
M83 ; extruder relative mode
M104 S170 ; set extruder temp for bed leveling
M140 S60 ; set bed temp
M109 R170 ; wait for bed leveling temp
M190 S60 ; wait for bed temp
G28 ; home all without mesh bed level
G29 ; mesh bed leveling 
M104 S215 ; set extruder temp
G92 E0.0
G1 Y-2.0 X179 F2400
G1 Z3 F720
M109 S215 ; wait for extruder temp

; intro line
M73 P1 R6
G1 X170 F1000
G1 Z0.2 F720
G1 X110.0 E8.0 F900
G1 X40.0 E10.0 F700
G92 E0.0

M221 S95 ; set flow
G21 ; set units to millimeters
G90 ; use absolute coordinates
M83 ; use relative distances for extrusion
M900 K0.2 ; Filament gcode LA 1.5
; ; Filament gcode LA 1.0
M107
;LAYER_CHANGE
;Z:0.2
;HEIGHT:0.2
;BEFORE_LAYER_CHANGE
G92 E0.0
;0.2


M73 P2 R5
G1 E-3.2 F4200
M73 P4 R5
G1 Z.2 F9000
;AFTER_LAYER_CHANGE
;0.2
G1 Z.4
G1 X69.32 Y61.854
G1 Z.2
G1 E3.2 F2400
M204 S800
;TYPE:Skirt/Brim
;WIDTH:0.42
G1 F1200
G1 X70.776 Y61.478 E.04713
G1 X105.291 Y63.877 E1.08481
G1 X106.567 Y64.358 E.04278
G1 X107.369 Y65.462 E.04278
G1 X107.498 Y66.406 E.02987
M73 P5 R5
G1 X107.146 Y71.695 E.1662
G1 X106.552 Y76.99 E.16705
G1 X105.734 Y82.235 E.16646
G1 X104.751 Y87.206 E.15888
G1 X103.638 Y91.885 E.1508
G1 X102.383 Y96.415 E.14736
G1 X101.033 Y100.673 E.14006
G1 X99.581 Y104.714 E.13465
G1 X98.114 Y108.342 E.12269
G1 X96.678 Y111.508 E.10901
G1 X95.302 Y114.208 E.09501
G1 X93.289 Y117.565 E.12273
G1 X92.038 Y119.27 E.0663
G1 X91.218 Y120.205 E.03899
G1 X90.044 Y120.901 E.04278
G1 X88.681 Y120.837 E.04278
G1 X87.567 Y120.019 E.04334
G1 X86.086 Y118.042 E.07745
G1 X84.589 Y115.871 E.08269
G1 X82.005 Y111.635 E.15557
G1 X80.775 Y109.358 E.08116
G1 X78.651 Y104.921 E.15424
M73 P6 R5
G1 X76.453 Y99.466 E.1844
G1 X75.237 Y95.954 E.11653
G1 X74.142 Y92.408 E.11636
G1 X73.154 Y88.828 E.11645
G1 X71.982 Y84.031 E.15482
G1 X70.481 Y76.852 E.22995
G1 X68.267 Y64.246 E.40131
G1 X68.435 Y62.892 E.04278
G1 X69.281 Y61.899 E.0409
M204 S1250
; printing object StarTrekBookmark.stl id:0 copy 0
G1 E-2.24 F4200
;WIPE_START
G1 F7200
G1 X70.776 Y61.478 E-.86035
G1 X70.869 Y61.485 E-.05165
;WIPE_END
G1 E-.048 F4200
G1 Z.4 F9000
G1 X72.486 Y67.98
G1 Z.2
G1 E3.2 F2400
M204 S800
;TYPE:Perimeter
;WIDTH:0.419999
G1 F1200
G1 X73.382 Y69.078 E.04444
G1 X76.601 Y72.649 E.15075
G1 X79.116 Y75.187 E.11201
G1 X81.355 Y77.25 E.09546
G1 X83.329 Y78.906 E.08078
M73 P7 R5
G1 X85.108 Y80.26 E.0701
G1 X86.651 Y81.321 E.05872
G1 X87.979 Y82.148 E.04907
G1 X89.229 Y82.848 E.04489
G1 X90.307 Y83.388 E.03782
G1 X91.328 Y83.843 E.03505
G1 X92.19 Y84.182 E.02904
G1 X93.14 Y84.506 E.03147
G1 X93.541 Y84.514 E.01255
G1 X93.778 Y84.433 E.00788
G1 X94.314 Y84.164 E.01878
G1 X95.152 Y83.664 E.03062
G1 X96.187 Y82.886 E.04058
G1 X96.944 Y82.182 E.03243
G1 X97.761 Y81.263 E.03854
;WIDTH:0.465172
G1 X97.841 Y81.2 E.0036
;WIDTH:0.510345
G1 X97.922 Y81.136 E.00398
;WIDTH:0.555518
G1 X98.002 Y81.073 E.00437
;WIDTH:0.600691
G1 X98.082 Y81.009 E.00475
G1 X98.236 Y80.807 E.01179
;WIDTH:0.588687
G1 X98.615 Y80.263 E.0301
;WIDTH:0.562162
G1 X98.945 Y79.743 E.02657
;WIDTH:0.543446
G1 X99.468 Y78.891 E.0416
;WIDTH:0.496281
G1 X99.678 Y78.5 E.01674
;WIDTH:0.45814
G1 X99.888 Y78.108 E.01533
;WIDTH:0.419999
G1 X100.661 Y76.714 E.05
G1 X103.639 Y71.092 E.19948
G1 X103.036 Y76.569 E.17277
G1 X102.653 Y79.025 E.07795
;WIDTH:0.447846
G1 X102.486 Y80.005 E.03347
;WIDTH:0.46466
G1 X102.233 Y81.572 E.05567
G1 X101.902 Y83.288 E.06127
;WIDTH:0.448151
G1 X101.893 Y83.334 E.00159
;WIDTH:0.482205
G1 X101.271 Y86.398 E.1142
G1 X101.124 Y87.025 E.02352
;WIDTH:0.513105
G1 X100.168 Y90.971 E.15873
;WIDTH:0.51428
G1 X100.151 Y91.038 E.0027
;WIDTH:0.538973
G1 X99.03 Y95.031 E.17107
;WIDTH:0.547365
G1 X98.914 Y95.433 E.01757
;WIDTH:0.557822
G1 X97.77 Y99.017 E.16107
;WIDTH:0.558247
G1 X97.758 Y99.055 E.00171
;WIDTH:0.567832
G1 X97.594 Y99.556 E.02301
G1 X96.416 Y102.836 E.15211
;WIDTH:0.578483
G1 X96.213 Y103.386 E.02612
G1 X94.94 Y106.543 E.15155
;WIDTH:0.581726
G1 X93.513 Y109.72 E.15605
;WIDTH:0.585508
G1 X93.387 Y109.991 E.01349
;WIDTH:0.586276
G1 X92.448 Y111.832 E.09337
;WIDTH:0.586819
G1 X92.424 Y111.878 E.00236
;WIDTH:0.599608
M73 P8 R5
G1 X92.128 Y112.443 E.0295
;WIDTH:0.602301
G1 X91.647 Y113.286 E.04517
G1 X91.617 Y113.384 E.00477
;WIDTH:0.556726
G1 X91.588 Y113.482 E.00438
;WIDTH:0.51115
G1 X91.558 Y113.581 E.00399
;WIDTH:0.465575
G1 X91.528 Y113.679 E.0036
;WIDTH:0.419999
G1 X91.228 Y114.207 E.01905
G1 X90.726 Y115 E.02942
G1 X90.108 Y115.932 E.03507
G1 X89.528 Y116.729 E.03093
G1 X88.934 Y115.937 E.03102
G1 X87.566 Y113.953 E.07556
G1 X86.158 Y111.721 E.08276
;WIDTH:0.465246
G1 X86.127 Y111.623 E.0036
;WIDTH:0.510493
G1 X86.096 Y111.526 E.00398
;WIDTH:0.55574
G1 X86.065 Y111.428 E.00437
;WIDTH:0.600987
G1 X86.034 Y111.33 E.00476
G1 X85.767 Y110.889 E.02395
;WIDTH:0.584337
G1 X85.139 Y109.83 E.05541
;WIDTH:0.570539
G1 X84.733 Y109.104 E.03649
;WIDTH:0.547633
G1 X83.99 Y107.739 E.06526
;WIDTH:0.536225
G1 X83.753 Y107.276 E.02131
;WIDTH:0.524541
G1 X82.918 Y105.608 E.07472
;WIDTH:0.517544
G1 X82.823 Y105.406 E.0088
;WIDTH:0.513747
G1 X82.08 Y103.793 E.06953
;WIDTH:0.515677
G1 X81.248 Y101.859 E.08277
;WIDTH:0.514502
G1 X81.232 Y101.82 E.00167
;WIDTH:0.524741
G1 X80.99 Y101.238 E.02522
;WIDTH:0.525492
G1 X80.359 Y99.606 E.07023
;WIDTH:0.525815
G1 X80.345 Y99.569 E.00157
;WIDTH:0.548337
G1 X79.851 Y98.26 E.05881
G1 X79.492 Y97.227 E.04597
;WIDTH:0.546526
G1 X79.368 Y96.935 E.01329
;WIDTH:0.504351
G1 X79.246 Y96.646 E.01202
;WIDTH:0.462175
G1 X79.123 Y96.358 E.01092
;WIDTH:0.419999
G1 X78.611 Y94.878 E.04908
;WIDTH:0.425953
G1 X78.418 Y94.245 E.02108
;WIDTH:0.469443
G1 X78.411 Y94.148 E.00347
;WIDTH:0.512933
G1 X78.404 Y94.05 E.00383
;WIDTH:0.556423
G1 X78.396 Y93.952 E.00418
;WIDTH:0.599912
G1 X78.389 Y93.855 E.00453
G1 X78.302 Y93.588 E.01297
;WIDTH:0.637105
G1 X77.654 Y91.412 E.11217
;WIDTH:0.652424
G1 X76.93 Y88.766 E.13904
;WIDTH:0.652868
G1 X76.921 Y88.731 E.00184
;WIDTH:0.668271
G1 X76.708 Y87.934 E.0429
;WIDTH:0.683903
G1 X75.773 Y84.075 E.21165
;WIDTH:0.690239
G1 X75.575 Y83.251 E.04557
G1 X74.819 Y79.719 E.19442
;WIDTH:0.656963
G1 X74.063 Y76.187 E.18442
;WIDTH:0.623687
G1 X73.842 Y75.044 E.05625
;WIDTH:0.597888
G1 X73.831 Y74.986 E.00269
;WIDTH:0.597237
G1 X73.769 Y74.772 E.01028
;WIDTH:0.552928
G1 X73.708 Y74.558 E.00946
;WIDTH:0.508618
G1 X73.646 Y74.343 E.00864
;WIDTH:0.464309
G1 X73.585 Y74.129 E.00782
;WIDTH:0.419999
G1 X72.816 Y69.909 E.13448
G1 X72.496 Y68.039 E.05949
M204 S1250
G1 E-2.24 F4200
;WIPE_START
G1 F7200
G1 X73.382 Y69.078 E-.75663
G1 X73.57 Y69.286 E-.15537
;WIPE_END
G1 E-.048 F4200
G1 Z.4 F9000
G1 X71.876 Y66.636
G1 Z.2
G1 E3.2 F2400
M204 S800
G1 F1200
G1 X73.663 Y68.825 E.08859
G1 X76.869 Y72.384 E.15019
G1 X79.402 Y74.94 E.11282
M73 P9 R5
G1 X81.61 Y76.972 E.0941
G1 X83.571 Y78.617 E.08023
G1 X85.322 Y79.949 E.06899
G1 X86.85 Y81.001 E.05817
G1 X88.201 Y81.841 E.04989
G1 X89.375 Y82.499 E.0422
G1 X90.461 Y83.043 E.03807
G1 X91.482 Y83.498 E.03505
G1 X92.314 Y83.826 E.02804
G1 X93.337 Y84.154 E.0337
G1 X93.61 Y84.095 E.00876
G1 X94.122 Y83.839 E.01796
G1 X94.927 Y83.362 E.02932
G1 X95.96 Y82.585 E.04054
G1 X96.667 Y81.927 E.03028
G1 X97.467 Y81.027 E.03776
G1 X97.863 Y80.534 E.01981
G1 X98.241 Y80.017 E.02009
G1 X98.578 Y79.502 E.01929
G1 X99.111 Y78.679 E.03075
G1 X99.558 Y77.926 E.02746
G1 X100.328 Y76.537 E.04978
G1 X103.552 Y70.452 E.21591
G1 X104.141 Y69.414 E.03744
G1 X103.99 Y71.465 E.06448
G1 X103.41 Y76.619 E.16263
G1 X102.627 Y81.638 E.15926
G1 X101.669 Y86.489 E.15505
G1 X100.563 Y91.139 E.14987
G1 X99.338 Y95.555 E.14367
G1 X98.021 Y99.701 E.1364
G1 X96.641 Y103.544 E.12804
G1 X95.226 Y107.05 E.11854
M73 P10 R5
G1 X93.804 Y110.185 E.10793
G1 X92.543 Y112.659 E.08707
G1 X91.551 Y114.401 E.06285
G1 X90.706 Y115.736 E.04956
G1 X90.018 Y116.713 E.03747
G1 X89.52 Y117.348 E.0253
G1 X88.628 Y116.158 E.04665
G1 X87.252 Y114.162 E.07602
G1 X85.958 Y112.125 E.07567
G1 X84.742 Y110.048 E.07544
G1 X83.601 Y107.936 E.07528
G1 X82.532 Y105.789 E.07521
G1 X81.53 Y103.61 E.07519
G1 X80.594 Y101.403 E.07516
G1 X79.438 Y98.416 E.10042
G1 X78.256 Y95.007 E.11315
G1 X77.189 Y91.553 E.11334
G1 X76.224 Y88.065 E.11348
G1 X75.076 Y83.37 E.15154
G1 X73.592 Y76.276 E.22726
G1 X72.444 Y69.972 E.20089
G1 X71.884 Y66.696 E.10421
M204 S1250
G1 E-2.24 F4200
;WIPE_START
G1 F7200
M73 P11 R5
G1 X72.939 Y67.959 E-.912
;WIPE_END
G1 E-.048 F4200
G1 Z.4 F9000
G1 X70.955 Y64.607
G1 Z.2
G1 E3.2 F2400
M204 S800
;TYPE:External perimeter
;WIDTH:0.426038
G1 F1200
G1 X71.461 Y65.231 E.02559
;WIDTH:0.453657
G1 X71.666 Y65.633 E.01539
;WIDTH:0.481276
G1 X71.871 Y66.034 E.01642
G1 X72.03 Y66.227 E.00913
;WIDTH:0.450638
G1 X72.189 Y66.421 E.00849
;WIDTH:0.419999
G1 X73.943 Y68.573 E.08704
G1 X77.137 Y72.118 E.14963
G1 X79.658 Y74.662 E.11228
G1 X81.865 Y76.695 E.0941
G1 X83.813 Y78.328 E.07968
G1 X85.536 Y79.639 E.06787
G1 X87.049 Y80.681 E.05762
G1 X88.385 Y81.512 E.04934
G1 X89.56 Y82.17 E.0422
G1 X90.614 Y82.699 E.037
G1 X91.643 Y83.157 E.03531
G1 X92.437 Y83.469 E.02676
G1 X93.297 Y83.767 E.02851
G1 X93.442 Y83.758 E.00458
G1 X93.931 Y83.514 E.01714
G1 X94.701 Y83.06 E.02803
G1 X95.733 Y82.283 E.04049
G1 X96.39 Y81.671 E.02813
G1 X97.174 Y80.79 E.03698
G1 X97.559 Y80.312 E.01926
G1 X97.926 Y79.81 E.0195
G1 X98.787 Y78.486 E.04951
G1 X99.228 Y77.743 E.02711
G1 X99.995 Y76.361 E.04955
G1 X103.221 Y70.271 E.21609
G1 X103.963 Y68.943 E.0477
;WIDTH:0.469906
G1 X104.194 Y68.475 E.01851
G1 X104.383 Y67.921 E.0208
;WIDTH:0.423117
G1 X104.857 Y67.11 E.02967
G1 X104.82 Y67.653 E.01721
G1 X104.741 Y68.042 E.01254
;WIDTH:0.468765
G1 X104.601 Y68.603 E.02048
G1 X104.542 Y69.104 E.01786
;WIDTH:0.419999
G1 X104.366 Y71.5 E.07531
G1 X103.784 Y76.669 E.16311
G1 X102.998 Y81.703 E.15975
G1 X102.037 Y86.569 E.15551
G1 X100.928 Y91.233 E.15032
M73 P12 R5
G1 X99.7 Y95.662 E.14411
G1 X98.379 Y99.822 E.13684
G1 X96.994 Y103.678 E.12849
G1 X95.573 Y107.199 E.11902
G1 X94.144 Y110.348 E.10844
G1 X92.875 Y112.838 E.08761
G1 X91.875 Y114.595 E.0634
G1 X91.005 Y115.968 E.05095
G1 X90.33 Y116.926 E.03677
G1 X89.844 Y117.55 E.02478
G1 X89.498 Y117.948 E.01654
G1 X88.322 Y116.378 E.06151
G1 X86.937 Y114.37 E.07647
G1 X85.636 Y112.321 E.07611
G1 X84.413 Y110.233 E.07586
G1 X83.267 Y108.109 E.07568
G1 X82.192 Y105.951 E.07559
G1 X81.185 Y103.762 E.07555
G1 X80.244 Y101.545 E.07552
G1 X79.084 Y98.546 E.10082
G1 X77.898 Y95.124 E.11356
G1 X76.827 Y91.659 E.11371
G1 X75.859 Y88.16 E.11383
G1 X74.709 Y83.453 E.15191
G1 X73.222 Y76.348 E.22761
M73 P13 R5
G1 X72.073 Y70.037 E.20111
G1 X71.495 Y66.658 E.10749
;WIDTH:0.458264
G1 X71.454 Y66.404 E.00889
;WIDTH:0.496528
G1 X71.413 Y66.15 E.00971
G1 X71.237 Y65.696 E.01837
;WIDTH:0.461283
G1 X71.062 Y65.241 E.01694
;WIDTH:0.426038
G1 X70.965 Y64.666 E.01857
M204 S1250
G1 E-2.24 F4200
;WIPE_START
G1 F7200
G1 X71.461 Y65.231 E-.41658
G1 X71.666 Y65.633 E-.24972
G1 X71.868 Y66.027 E-.2457
;WIPE_END
G1 E-.048 F4200
G1 Z.4 F9000
G1 X75.403 Y73.633
G1 Z.2
G1 E3.2 F2400
M204 S800
;TYPE:Perimeter
;WIDTH:0.419999
G1 F1200
G1 X75.588 Y73.571 E.00614
G1 X76.018 Y73.604 E.01352
G1 X76.363 Y73.8 E.01242
G1 X81.901 Y78.757 E.23306
G1 X83.484 Y80.033 E.06376
G1 X85.395 Y81.434 E.07428
G1 X87.558 Y82.864 E.08132
G1 X89.758 Y84.173 E.08024
G1 X91.399 Y85.052 E.05838
G1 X92.374 Y85.517 E.03386
G1 X92.95 Y85.765 E.01968
G1 X93.277 Y85.883 E.01088
G1 X93.876 Y85.675 E.01989
G1 X94.567 Y85.357 E.02385
G1 X95.343 Y84.884 E.02848
G1 X95.806 Y84.54 E.01809
G1 X96.321 Y84.108 E.02107
G1 X96.82 Y83.629 E.0217
G1 X97.192 Y83.236 E.01697
G1 X97.521 Y82.858 E.01568
G1 X98.123 Y82.089 E.03064
G1 X98.377 Y81.722 E.01398
;WIDTH:0.465172
G1 X98.415 Y81.627 E.0036
;WIDTH:0.510345
G1 X98.453 Y81.532 E.00398
;WIDTH:0.555518
G1 X98.491 Y81.437 E.00437
;WIDTH:0.600691
G1 X98.529 Y81.342 E.00475
G1 X98.984 Y80.656 E.03817
;WIDTH:0.568735
G1 X99.372 Y80.005 E.03315
;WIDTH:0.543446
G1 X99.77 Y79.282 E.03436
;WIDTH:0.501535
G1 X99.857 Y79.122 E.00693
;WIDTH:0.496281
G1 X100.117 Y78.93 E.01217
;WIDTH:0.45814
G1 X100.376 Y78.738 E.01114
;WIDTH:0.419999
G1 X100.997 Y78.729 E.01947
G1 X101.441 Y78.876 E.01467
G1 X101.902 Y79.21 E.01785
;WIDTH:0.447714
G1 X102.09 Y79.918 E.02467
;WIDTH:0.447846
G1 X102.086 Y79.938 E.00069
;WIDTH:0.46466
G1 X101.504 Y83.213 E.11664
;WIDTH:0.448151
G1 X101.496 Y83.251 E.00131
;WIDTH:0.482205
G1 X100.71 Y86.889 E.13592
;WIDTH:0.477269
G1 X100.703 Y86.921 E.0012
;WIDTH:0.513105
M73 P14 R5
G1 X99.711 Y90.858 E.15873
;WIDTH:0.51428
G1 X99.698 Y90.909 E.00207
;WIDTH:0.538973
G1 X98.553 Y94.895 E.17107
;WIDTH:0.547365
G1 X98.434 Y95.279 E.01687
;WIDTH:0.557822
G1 X97.28 Y98.86 E.16107
;WIDTH:0.567906
G1 X95.939 Y102.614 E.17402
;WIDTH:0.578483
G1 X94.447 Y106.344 E.17889
;WIDTH:0.581726
G1 X93.024 Y109.498 E.15504
;WIDTH:0.580301
G1 X93.003 Y109.542 E.00218
;WIDTH:0.585508
G1 X92.903 Y109.744 E.01016
;WIDTH:0.586276
G1 X91.964 Y111.585 E.09337
;WIDTH:0.599608
G1 X91.313 Y112.755 E.06196
;WIDTH:0.602301
G1 X91.165 Y113.002 E.01339
G1 X91.094 Y113.075 E.00477
;WIDTH:0.556726
G1 X91.022 Y113.148 E.00438
;WIDTH:0.51115
G1 X90.95 Y113.222 E.00399
;WIDTH:0.465575
G1 X90.879 Y113.295 E.0036
;WIDTH:0.419999
G1 X90.411 Y114.058 E.02804
G1 X90.305 Y114.199 E.00556
G1 X90.102 Y114.368 E.00827
G1 X89.728 Y114.5 E.01243
G1 X89.561 Y114.506 E.00524
G1 X89.186 Y114.408 E.01216
G1 X88.854 Y114.131 E.01356
G1 X87.464 Y112.28 E.07258
G1 X86.806 Y111.312 E.0367
;WIDTH:0.465246
G1 X86.731 Y111.242 E.0036
;WIDTH:0.510493
G1 X86.656 Y111.172 E.00398
;WIDTH:0.55574
G1 X86.581 Y111.102 E.00437
;WIDTH:0.600987
G1 X86.506 Y111.032 E.00476
G1 X86.231 Y110.61 E.02338
;WIDTH:0.584337
G1 X85.591 Y109.559 E.05541
;WIDTH:0.570539
G1 X85.197 Y108.898 E.03374
;WIDTH:0.548591
G1 X85.176 Y108.861 E.00179
;WIDTH:0.547633
G1 X84.422 Y107.501 E.06526
;WIDTH:0.536225
G1 X84.183 Y107.06 E.02058
;WIDTH:0.524541
G1 X83.342 Y105.395 E.07472
;WIDTH:0.517544
G1 X83.25 Y105.209 E.00818
;WIDTH:0.513747
G1 X82.504 Y103.597 E.06953
;WIDTH:0.515677
G1 X81.682 Y101.674 E.08222
;WIDTH:0.524741
G1 X81.44 Y101.064 E.02629
;WIDTH:0.525492
G1 X80.809 Y99.432 E.07023
;WIDTH:0.525815
G1 X80.798 Y99.402 E.00126
;WIDTH:0.548337
G1 X79.967 Y97.061 E.1044
;WIDTH:0.54653
G1 X79.992 Y96.834 E.00958
;WIDTH:0.504353
G1 X80.016 Y96.606 E.00878
;WIDTH:0.462176
G1 X80.041 Y96.379 E.00798
;WIDTH:0.419999
G1 X80.368 Y95.962 E.01662
G1 X80.754 Y95.8 E.01311
G1 X80.916 Y95.786 E.00513
G1 X88.097 Y95.786 E.22515
G1 X88.376 Y95.828 E.00882
G1 X88.58 Y95.919 E.007
G1 X88.749 Y96.048 E.00668
G1 X88.942 Y96.309 E.01017
G1 X89.025 Y96.56 E.00831
G1 X89.478 Y99.059 E.07961
G1 X89.987 Y96.157 E.09236
G1 X90.097 Y95.852 E.01017
G1 X90.281 Y95.623 E.00922
G1 X90.522 Y95.464 E.00903
G1 X91.994 Y94.786 E.05083
G1 X90.794 Y94.157 E.04249
G1 X90.546 Y93.969 E.00976
G1 X90.371 Y93.708 E.00984
G1 X90.289 Y93.307 E.01285
G1 X90.414 Y92.762 E.01752
G1 X90.602 Y92.132 E.0206
G1 X90.09 Y92.544 E.0206
M73 P15 R5
G1 X89.888 Y92.668 E.00745
G1 X89.465 Y92.751 E.01351
G1 X89.265 Y92.723 E.00632
G1 X88.915 Y92.549 E.01225
G1 X88.33 Y92.087 E.02337
G1 X88.57 Y92.911 E.02689
G1 X88.607 Y93.212 E.00953
G1 X88.578 Y93.412 E.00632
G1 X88.383 Y93.786 E.01322
G1 X88.151 Y93.983 E.00953
G1 X87.828 Y94.103 E.01081
G1 X87.665 Y94.117 E.00513
G1 X79.822 Y94.117 E.24593
G1 X79.487 Y94.056 E.01067
;WIDTH:0.464978
G1 X79.341 Y93.953 E.00627
;WIDTH:0.509956
G1 X79.195 Y93.851 E.00693
;WIDTH:0.554934
G1 X79.049 Y93.748 E.0076
;WIDTH:0.599912
G1 X78.903 Y93.645 E.00827
G1 X78.828 Y93.438 E.01023
;WIDTH:0.637105
G1 X78.227 Y91.257 E.11173
;WIDTH:0.652424
G1 X77.518 Y88.607 E.13904
;WIDTH:0.668271
G1 X77.316 Y87.788 E.04387
;WIDTH:0.683846
G1 X76.398 Y83.935 E.21109
;WIDTH:0.690239
G1 X75.419 Y79.588 E.23982
;WIDTH:0.656963
G1 X74.63 Y76.063 E.18442
;WIDTH:0.623687
G1 X74.385 Y74.932 E.05588
