; generated by PrusaSlicer 2.5.2+win64 on 2023-06-19 at 18:58:35 UTC


;
;

;
;
; 

; external perimeters extrusion width = 0.45mm
; perimeters extrusion width = 0.45mm
; infill extrusion width = 0.45mm
; solid infill extrusion width = 0.45mm
; top infill extrusion width = 0.40mm
; first layer extrusion width = 0.42mm

; external perimeters extrusion width = 0.45mm
; perimeters extrusion width = 0.45mm
; infill extrusion width = 0.45mm
; solid infill extrusion width = 0.45mm
; top infill extrusion width = 0.40mm
; first layer extrusion width = 0.42mm

M73 P0 R190
M201 X2500 Y2500 Z400 E5000 ; sets maximum accelerations, mm/sec^2
M203 X180 Y180 Z12 E80 ; sets maximum feedrates, mm / sec
M204 P2000 R1250 T2500 ; sets acceleration (P, T) and retract acceleration (R), mm/sec^2
M205 X8.00 Y8.00 Z2.00 E10.00 ; sets the jerk limits, mm/sec
M205 S0 T0 ; sets the minimum extruding and travel feed rate, mm/sec
M107
;TYPE:Custom
M862.3 P "MINI" ; printer model check
G90 ; use absolute coordinates
M83 ; extruder relative mode
M104 S170 ; set extruder temp for bed leveling
M140 S60 ; set bed temp
M109 R170 ; wait for bed leveling temp
M190 S60 ; wait for bed temp
M204 T1250 ; set travel acceleration
G28 ; home all without mesh bed level
G29 ; mesh bed leveling 
M204 T2500 ; restore travel acceleration
M104 S215 ; set extruder temp
G92 E0
G1 Y-2 X179 F2400
G1 Z3 F720
M109 S215 ; wait for extruder temp

; intro line
G1 X170 F1000
G1 Z0.2 F720
G1 X110 E8 F900
G1 X40 E10 F700
G92 E0

M221 S95 ; set flow
G21 ; set units to millimeters
G90 ; use absolute coordinates
M83 ; use relative distances for extrusion
M900 K0.2 ; Filament gcode LA 1.5
; ; Filament gcode LA 1.0
M107
;LAYER_CHANGE
;Z:0.2
;HEIGHT:0.2
;BEFORE_LAYER_CHANGE
G92 E0.0
;0.2


G1 E-3.2 F4200
G1 Z.2 F720
;AFTER_LAYER_CHANGE
;0.2
G1 Z.4
G1 X35.124 Y54.788 F9000
G1 Z.2 F720
G1 E3.2 F2400
M204 P600
;TYPE:Skirt/Brim
;WIDTH:0.42
G1 F1200
G1 X37.047 Y53.7 E.06929
G1 X39.147 Y53.007 E.06933
G1 X41.301 Y52.737 E.06808
G1 X140.433 Y50.88 E3.10874
G1 X162.82 Y50.837 E.70194
G1 X164.544 Y51 E.05428
G1 X166.454 Y51.512 E.062
G1 X167.348 Y51.88 E.03032
G1 X168.448 Y52.465 E.03906
G1 X169.253 Y53.001 E.03032
G1 X170.746 Y54.299 E.06203
G1 X172.114 Y56.036 E.06932
G1 X172.924 Y57.544 E.05367
G1 X173.616 Y59.643 E.0693
G1 X173.888 Y61.974 E.07356
G1 X173.934 Y85.205 E.72839
G1 X173.595 Y95.892 E.33527
G1 X173.332 Y98.106 E.06989
G1 X172.835 Y99.744 E.05367
G1 X171.956 Y101.516 E.06203
G1 X171.419 Y102.32 E.03032
G1 X170.457 Y103.468 E.04694
G1 X149.213 Y124.716 E.94207
G1 X147.793 Y125.897 E.05793
G1 X145.867 Y126.982 E.06929
G1 X143.766 Y127.671 E.06932
G1 X141.611 Y127.936 E.06809
G1 X42.476 Y129.594 E3.10874
G1 X20.089 Y129.591 E.70194
G1 X18.596 Y129.459 E.04698
G1 X17.648 Y129.271 E.03031
G1 X15.774 Y128.639 E.06201
G1 X14.264 Y127.832 E.05367
G1 X12.697 Y126.624 E.06203
M73 P0 R189
G1 X12.014 Y125.94 E.03032
G1 X10.806 Y124.373 E.06203
G1 X9.999 Y122.864 E.05367
G1 X9.311 Y120.763 E.0693
G1 X9.047 Y118.549 E.06992
G1 X9.044 Y95.201 E.73205
G1 X9.402 Y84.479 E.33638
G1 X9.641 Y82.632 E.05841
G1 X10.135 Y80.993 E.05367
G1 X11.13 Y79.018 E.06933
G1 X12.585 Y77.179 E.07354
G1 X33.706 Y55.973 E.93841
G1 X35.078 Y54.827 E.05605
M204 P1000
G1 E-2.24 F4200
;WIPE_START
G1 F7200
G1 X36.506 Y54.009 E-.912
;WIPE_END
G1 E-.048 F4200
G1 Z.4 F720
G1 X36.744 Y56.91 F9000
G1 Z.2 F720
G1 E3.2 F2400
M204 P600
G1 F1200
G1 X38.027 Y56.181 E.04629
G1 X39.868 Y55.58 E.06071
G1 X41.808 Y55.402 E.0611
G1 X43.317 Y55.571 E.04759
G1 X44.759 Y55.995 E.04715
G1 X46.422 Y56.866 E.05884
G1 X47.531 Y57.757 E.04461
G1 X66.551 Y76.692 E.84149
G1 X132.026 Y76.56 E2.05295
G1 X131.997 Y62.066 E.45445
G1 X132.127 Y60.673 E.04388
G1 X132.567 Y59.081 E.05178
G1 X133.296 Y57.611 E.05145
G1 X134.308 Y56.287 E.05226
G1 X135.552 Y55.184 E.05212
G1 X137.57 Y54.096 E.07188
G1 X138.962 Y53.703 E.04537
G1 X140.392 Y53.548 E.04508
G1 X163.015 Y53.515 E.70935
G1 X164.554 Y53.722 E.04866
G1 X165.996 Y54.193 E.04757
G1 X167.36 Y54.928 E.04858
G1 X168.577 Y55.9 E.04885
G1 X169.902 Y57.526 E.06577
G1 X170.64 Y58.997 E.0516
G1 X171.088 Y60.588 E.05181
G1 X171.223 Y61.971 E.04356
G1 X171.264 Y85.331 E.73244
G1 X171.106 Y86.779 E.04569
G1 X170.62 Y88.391 E.05278
G1 X169.78 Y89.952 E.0556
G1 X169.414 Y90.409 E.01836
G1 X170.231 Y91.911 E.05361
G1 X170.751 Y93.556 E.05411
G1 X170.919 Y94.928 E.04331
G1 X170.928 Y95.892 E.03024
G1 X170.726 Y97.533 E.05183
G1 X170.208 Y99.119 E.05232
G1 X169.47 Y100.461 E.04803
G1 X168.488 Y101.674 E.04894
G1 X147.338 Y122.825 E.93783
G1 X146.177 Y123.772 E.04697
G1 X144.893 Y124.499 E.04628
G1 X143.057 Y125.095 E.06051
G1 X141.152 Y125.271 E.06
G1 X139.652 Y125.109 E.04729
G1 X138.184 Y124.681 E.04795
G1 X136.503 Y123.799 E.05951
G1 X135.392 Y122.904 E.04474
G1 X116.41 Y103.93 E.8415
G1 X50.934 Y103.93 E2.05295
G1 X50.934 Y118.427 E.45454
G1 X50.762 Y120.02 E.05021
G1 X50.236 Y121.711 E.05556
G1 X49.39 Y123.236 E.05466
G1 X48.251 Y124.563 E.05484
G1 X47.009 Y125.541 E.04958
G1 X45.698 Y126.239 E.04655
G1 X44.109 Y126.741 E.05225
G1 X42.438 Y126.93 E.05274
G1 X20.056 Y126.922 E.70177
G1 X18.626 Y126.76 E.04513
G1 X16.994 Y126.26 E.05352
G1 X15.339 Y125.343 E.05933
G1 X14.204 Y124.379 E.04666
G1 X13.252 Y123.238 E.0466
G1 X12.435 Y121.777 E.05247
G1 X11.905 Y120.142 E.0539
G1 X11.707 Y118.427 E.05412
G1 X11.711 Y95.135 E.73033
G1 X11.895 Y93.541 E.05029
G1 X12.38 Y91.984 E.05114
G1 X13.189 Y90.489 E.0533
G1 X13.459 Y90.151 E.01357
G1 X12.696 Y88.682 E.0519
G1 X12.187 Y86.955 E.05643
G1 X12.058 Y85.783 E.03697
G1 X12.051 Y84.813 E.03044
G1 X12.206 Y83.397 E.04464
G1 X12.609 Y81.987 E.04599
G1 X13.385 Y80.441 E.05424
G1 X14.473 Y79.058 E.05517
G1 X35.585 Y57.86 E.93806
G1 X36.697 Y56.948 E.04509
M204 P1000
G1 X36.935 Y57.238 F9000
M204 P600
G1 F1200
G1 X38.197 Y56.518 E.04554
G1 X39.964 Y55.945 E.05825
G1 X41.786 Y55.779 E.05737
G1 X43.227 Y55.937 E.04543
G1 X44.635 Y56.351 E.04604
G1 X46.2 Y57.172 E.0554
G1 X47.272 Y58.031 E.04308
G1 X66.395 Y77.069 E.84606
G1 X132.404 Y76.936 E2.06967
G1 X132.375 Y62.074 E.46599
G1 X132.501 Y60.725 E.0425
G1 X132.925 Y59.2 E.04963
G1 X133.625 Y57.796 E.04919
G1 X134.596 Y56.532 E.04999
G1 X135.785 Y55.481 E.04974
G1 X137.693 Y54.453 E.06794
G1 X139.019 Y54.077 E.04323
G1 X140.422 Y53.924 E.04426
G1 X162.979 Y53.891 E.70724
G1 X164.453 Y54.086 E.04664
G1 X165.862 Y54.546 E.04648
G1 X167.165 Y55.251 E.04645
G1 X168.326 Y56.181 E.04664
G1 X169.574 Y57.714 E.062
G1 X170.282 Y59.118 E.04928
G1 X170.714 Y60.642 E.04967
G1 X170.846 Y61.98 E.04218
G1 X170.888 Y85.301 E.73119
G1 X170.739 Y86.687 E.04372
G1 X170.265 Y88.264 E.05161
G1 X169.457 Y89.757 E.05322
G1 X168.916 Y90.421 E.02688
G1 X169.181 Y90.761 E.01349
G1 X169.877 Y92.042 E.04573
G1 X170.378 Y93.62 E.05191
G1 X170.544 Y94.963 E.04242
G1 X170.551 Y95.883 E.02885
G1 X170.362 Y97.434 E.04899
G1 X169.869 Y98.953 E.05008
G1 X169.148 Y100.265 E.04693
G1 X168.214 Y101.415 E.04644
G1 X147.078 Y122.551 E.93724
G1 X145.978 Y123.452 E.04457
G1 X144.724 Y124.161 E.04516
G1 X142.961 Y124.729 E.05806
G1 X141.173 Y124.894 E.0563
G1 X139.71 Y124.736 E.04616
G1 X138.308 Y124.324 E.04579
G1 X136.725 Y123.494 E.05605
G1 X135.651 Y122.63 E.04321
G1 X116.567 Y103.553 E.84608
G1 X50.557 Y103.553 E2.06967
G1 X50.557 Y118.418 E.46606
G1 X50.397 Y119.926 E.04757
G1 X49.896 Y121.547 E.05317
G1 X49.091 Y123.006 E.05225
G1 X48.003 Y124.278 E.0525
G1 X46.789 Y125.235 E.04845
G1 X45.537 Y125.898 E.04442
G1 X44.049 Y126.369 E.04895
G1 X42.427 Y126.553 E.05116
G1 X20.067 Y126.545 E.70109
G1 X18.686 Y126.388 E.04359
G1 X17.159 Y125.92 E.05007
G1 X15.568 Y125.043 E.05697
G1 X14.483 Y124.125 E.04454
G1 X13.553 Y123.01 E.04553
G1 X12.773 Y121.61 E.05024
G1 X12.277 Y120.08 E.05043
G1 X12.085 Y118.416 E.05251
G1 X12.088 Y95.145 E.72965
G1 X12.26 Y93.636 E.04762
G1 X12.734 Y92.114 E.04999
G1 X13.512 Y90.686 E.05099
G1 X13.954 Y90.142 E.02197
G1 X13.72 Y89.835 E.01209
G1 X13.052 Y88.557 E.04521
G1 X12.553 Y86.865 E.05531
G1 X12.434 Y85.753 E.03508
G1 X12.427 Y84.843 E.02854
G1 X12.579 Y83.455 E.04378
G1 X12.966 Y82.109 E.04391
G1 X13.713 Y80.628 E.052
G1 X14.747 Y79.317 E.05237
G1 X35.846 Y58.133 E.93743
G1 X36.889 Y57.276 E.04232
M204 P1000
G1 X37.128 Y57.567 F9000
M204 P600
G1 F1200
G1 X38.365 Y56.856 E.04475
G1 X40.06 Y56.311 E.05581
G1 X41.764 Y56.156 E.05366
G1 X43.168 Y56.31 E.04431
G1 X44.51 Y56.708 E.04388
G1 X45.979 Y57.478 E.05199
G1 X47.014 Y58.306 E.04155
G1 X66.24 Y77.447 E.85064
G1 X132.453 Y77.313 E2.07607
G1 X132.752 Y77.283 E.00944
G1 X132.781 Y76.982 E.00948
G1 X132.752 Y62.083 E.46717
G1 X132.875 Y60.777 E.04111
G1 X133.283 Y59.319 E.04748
G1 X133.954 Y57.981 E.04692
G1 X134.883 Y56.777 E.04772
G1 X136.018 Y55.779 E.04738
G1 X137.815 Y54.81 E.06401
G1 X139.106 Y54.444 E.04208
G1 X140.452 Y54.3 E.04244
G1 X162.942 Y54.266 E.70516
G1 X164.354 Y54.45 E.04462
M73 P0 R188
G1 X165.698 Y54.886 E.04431
G1 X166.97 Y55.574 E.04536
G1 X168.074 Y56.463 E.04441
G1 X169.247 Y57.903 E.05826
G1 X169.925 Y59.239 E.04696
G1 X170.341 Y60.696 E.04751
G1 X170.469 Y61.99 E.04078
G1 X170.512 Y85.272 E.72997
G1 X170.373 Y86.596 E.04175
G1 X169.91 Y88.136 E.05043
G1 X169.135 Y89.56 E.05083
G1 X168.43 Y90.418 E.03482
G1 X168.858 Y90.956 E.02155
G1 X169.537 Y92.206 E.04462
G1 X170.006 Y93.683 E.04859
G1 X170.168 Y94.998 E.04153
G1 X170.174 Y95.873 E.02745
G1 X169.998 Y97.336 E.04618
G1 X169.53 Y98.788 E.04784
G1 X168.844 Y100.041 E.04477
G1 X167.941 Y101.155 E.04498
G1 X146.818 Y122.278 E.93663
G1 X145.752 Y123.15 E.04317
G1 X144.556 Y123.823 E.04303
G1 X142.866 Y124.364 E.05562
G1 X141.195 Y124.517 E.05264
G1 X139.799 Y124.369 E.04399
G1 X138.432 Y123.968 E.04467
G1 X136.947 Y123.188 E.0526
G1 X135.911 Y122.356 E.04167
G1 X116.723 Y103.176 E.85065
G1 X50.509 Y103.176 E2.07607
G1 X50.21 Y103.206 E.00944
G1 X50.18 Y103.506 E.00947
G1 X50.18 Y118.408 E.46722
G1 X50.031 Y119.833 E.04494
G1 X49.556 Y121.382 E.05079
G1 X48.791 Y122.776 E.04985
G1 X47.754 Y123.994 E.05013
G1 X46.569 Y124.928 E.04732
G1 X45.376 Y125.557 E.04228
G1 X43.987 Y125.996 E.04567
G1 X42.416 Y126.176 E.04958
G1 X20.078 Y126.168 E.70041
G1 X18.746 Y126.015 E.04204
G1 X17.323 Y125.58 E.04665
G1 X15.797 Y124.742 E.05459
G1 X14.74 Y123.848 E.04341
G1 X13.855 Y122.783 E.04342
G1 X13.112 Y121.444 E.04801
G1 X12.642 Y119.983 E.04812
G1 X12.462 Y118.406 E.04976
G1 X12.465 Y95.156 E.72899
G1 X12.626 Y93.731 E.04494
G1 X13.089 Y92.244 E.04883
G1 X13.834 Y90.883 E.04866
G1 X14.439 Y90.147 E.02987
G1 X14.045 Y89.644 E.02001
G1 X13.395 Y88.399 E.04405
G1 X12.927 Y86.808 E.05199
G1 X12.81 Y85.722 E.03427
G1 X12.803 Y84.873 E.02663
G1 X12.952 Y83.512 E.04291
G1 X13.323 Y82.231 E.04182
G1 X14.041 Y80.816 E.04975
G1 X15.022 Y79.575 E.0496
G1 X36.106 Y58.406 E.9368
G1 X37.082 Y57.605 E.03956
M204 P1000
G1 X37.321 Y57.897 F9000
M204 P600
G1 F1200
G1 X37.397 Y57.834 E.00309
G1 X38.533 Y57.194 E.04089
G1 X40.154 Y56.676 E.05336
G1 X41.742 Y56.533 E.04999
G1 X43.078 Y56.676 E.04212
G1 X44.385 Y57.064 E.04276
G1 X45.758 Y57.784 E.04858
G1 X46.755 Y58.58 E.04002
G1 X66.084 Y77.824 E.85521
G1 X132.472 Y77.69 E2.08155
G1 X132.756 Y77.662 E.00894
M73 P1 R188
G1 X132.976 Y77.547 E.00779
G1 X133.069 Y77.434 E.0046
G1 X133.132 Y77.276 E.00532
G1 X133.159 Y77 E.00869
G1 X133.129 Y62.091 E.46746
G1 X133.248 Y60.83 E.03972
G1 X133.641 Y59.439 E.0453
G1 X134.282 Y58.168 E.04466
G1 X135.17 Y57.022 E.04544
G1 X136.25 Y56.076 E.04501
G1 X137.938 Y55.168 E.06011
G1 X139.194 Y54.811 E.04092
G1 X140.482 Y54.676 E.04061
G1 X162.907 Y54.642 E.70313
G1 X164.254 Y54.814 E.04259
G1 X165.565 Y55.239 E.0432
G1 X166.775 Y55.897 E.04319
G1 X167.821 Y56.743 E.0422
G1 X168.921 Y58.092 E.05456
G1 X169.567 Y59.361 E.04464
G1 X169.967 Y60.751 E.04534
G1 X170.092 Y62 E.03937
G1 X170.136 Y85.243 E.72876
G1 X170.007 Y86.505 E.03976
G1 X169.554 Y88.008 E.04924
G1 X168.813 Y89.363 E.04841
G1 X167.942 Y90.415 E.04282
G1 X168.535 Y91.151 E.02964
G1 X169.197 Y92.37 E.0435
G1 X169.641 Y93.78 E.04633
G1 X169.792 Y95.032 E.03955
G1 X169.797 Y95.864 E.02608
G1 X169.633 Y97.238 E.04341
G1 X169.19 Y98.624 E.04561
G1 X168.54 Y99.817 E.04259
G1 X167.667 Y100.895 E.0435
G1 X146.558 Y122.005 E.93602
G1 X145.526 Y122.847 E.04176
G1 X144.389 Y123.484 E.04089
G1 X142.772 Y123.998 E.05319
G1 X141.215 Y124.14 E.04901
G1 X139.889 Y124.002 E.04181
G1 X138.556 Y123.611 E.04354
G1 X137.169 Y122.883 E.04915
G1 X136.17 Y122.082 E.04013
G1 X116.879 Y102.799 E.85522
G1 X50.491 Y102.799 E2.08155
G1 X50.217 Y102.826 E.00864
G1 X50.052 Y102.892 E.00555
G1 X49.905 Y103.032 E.00636
G1 X49.831 Y103.211 E.00607
G1 X49.803 Y103.488 E.00873
G1 X49.803 Y118.398 E.4675
G1 X49.665 Y119.742 E.04234
G1 X49.216 Y121.219 E.04842
G1 X48.491 Y122.547 E.04745
G1 X47.506 Y123.709 E.04775
G1 X46.35 Y124.621 E.04616
G1 X45.216 Y125.215 E.04013
G1 X43.926 Y125.624 E.04243
G1 X42.406 Y125.799 E.04799
G1 X20.089 Y125.791 E.69973
G1 X18.806 Y125.643 E.04049
G1 X17.486 Y125.24 E.04326
G1 X16.025 Y124.442 E.05219
G1 X14.996 Y123.571 E.04228
G1 X14.157 Y122.556 E.04129
G1 X13.451 Y121.278 E.04578
G1 X13.007 Y119.886 E.04581
G1 X12.839 Y118.395 E.04703
G1 X12.842 Y95.166 E.72834
G1 X12.991 Y93.826 E.04227
G1 X13.443 Y92.375 E.04766
G1 X14.155 Y91.081 E.04631
G1 X14.926 Y90.152 E.03784
G1 X14.371 Y89.453 E.02796
G1 X13.738 Y88.241 E.04289
G1 X13.3 Y86.751 E.04868
G1 X13.186 Y85.691 E.03345
G1 X13.179 Y84.902 E.02474
G1 X13.319 Y83.601 E.04101
G1 X13.681 Y82.353 E.04075
G1 X14.348 Y81.034 E.04634
G1 X15.297 Y79.833 E.04799
G1 X36.367 Y58.679 E.93616
G1 X37.274 Y57.935 E.03678
M204 P1000
G1 X37.512 Y58.224 F9000
M204 P600
G1 F1200
G1 X37.596 Y58.155 E.00343
G1 X38.701 Y57.533 E.03975
G1 X40.249 Y57.042 E.0509
G1 X41.72 Y56.91 E.04633
G1 X43.02 Y57.049 E.04099
G1 X44.26 Y57.42 E.04057
G1 X45.537 Y58.09 E.04521
G1 X46.496 Y58.855 E.03848
G1 X65.929 Y78.202 E.85978
G1 X132.492 Y78.067 E2.08703
G1 X132.813 Y78.035 E.01014
G1 X132.979 Y77.984 E.00544
G1 X133.134 Y77.901 E.00551
G1 X133.258 Y77.799 E.00502
G1 X133.378 Y77.652 E.00596
G1 X133.454 Y77.509 E.00505
G1 X133.504 Y77.341 E.00551
G1 X133.536 Y77.018 E.01018
G1 X133.506 Y62.1 E.46775
G1 X133.622 Y60.883 E.03831
G1 X133.998 Y59.561 E.04312
G1 X134.61 Y58.355 E.04239
G1 X135.456 Y57.269 E.04317
G1 X136.482 Y56.375 E.04266
G1 X138.062 Y55.524 E.05625
G1 X139.249 Y55.184 E.03874
G1 X140.511 Y55.052 E.03978
G1 X162.872 Y55.018 E.70111
G1 X164.156 Y55.178 E.04057
G1 X165.401 Y55.579 E.04102
G1 X166.552 Y56.201 E.04101
G1 X167.569 Y57.024 E.04103
G1 X168.594 Y58.282 E.05088
G1 X169.21 Y59.484 E.04233
G1 X169.594 Y60.806 E.04316
G1 X169.715 Y62.01 E.03796
G1 X169.76 Y85.216 E.72758
G1 X169.641 Y86.414 E.03775
G1 X169.199 Y87.88 E.04803
G1 X168.492 Y89.165 E.04597
G1 X167.702 Y90.113 E.03871
G1 X167.414 Y90.363 E.01195
G1 X168.212 Y91.347 E.03971
G1 X168.857 Y92.534 E.04236
G1 X169.276 Y93.875 E.04405
G1 X169.417 Y95.065 E.03758
G1 X169.42 Y95.854 E.02473
G1 X169.268 Y97.142 E.04066
G1 X168.85 Y98.46 E.04335
G1 X168.217 Y99.621 E.04147
G1 X167.394 Y100.636 E.04096
G1 X146.298 Y121.732 E.93543
G1 X145.327 Y122.526 E.03933
G1 X144.221 Y123.146 E.03975
G1 X142.678 Y123.632 E.05074
G1 X141.235 Y123.763 E.04543
G1 X139.978 Y123.636 E.03961
G1 X138.681 Y123.255 E.0424
G1 X137.39 Y122.577 E.04571
G1 X136.429 Y121.808 E.03859
G1 X117.035 Y102.422 E.85979
G1 X50.472 Y102.422 E2.08703
G1 X50.15 Y102.454 E.01014
G1 X49.982 Y102.505 E.00551
G1 X49.84 Y102.581 E.00505
G1 X49.693 Y102.701 E.00596
G1 X49.592 Y102.825 E.00502
G1 X49.508 Y102.98 E.00552
G1 X49.458 Y103.146 E.00544
G1 X49.426 Y103.469 E.01018
G1 X49.426 Y118.389 E.46779
G1 X49.298 Y119.651 E.03976
G1 X48.875 Y121.057 E.04604
G1 X48.19 Y122.319 E.04505
G1 X47.257 Y123.425 E.04535
G1 X46.13 Y124.313 E.045
G1 X45.056 Y124.873 E.03797
G1 X43.865 Y125.251 E.03921
G1 X42.395 Y125.422 E.04639
G1 X20.1 Y125.414 E.69904
G1 X18.867 Y125.27 E.03893
G1 X17.649 Y124.899 E.0399
G1 X16.253 Y124.141 E.04981
G1 X15.276 Y123.318 E.04008
G1 X14.459 Y122.33 E.04019
G1 X13.791 Y121.113 E.04353
G1 X13.372 Y119.79 E.04351
M73 P1 R187
G1 X13.216 Y118.385 E.04432
G1 X13.22 Y95.176 E.72771
G1 X13.356 Y93.921 E.0396
