; generated by PrusaSlicer 2.5.2+win64 on 2023-06-19 at 01:19:56 UTC


;
;

;
;
; 

; external perimeters extrusion width = 0.45mm
; perimeters extrusion width = 0.45mm
; infill extrusion width = 0.45mm
; solid infill extrusion width = 0.45mm
; top infill extrusion width = 0.40mm
; first layer extrusion width = 0.42mm

M73 P0 R84
M201 X2500 Y2500 Z400 E5000 ; sets maximum accelerations, mm/sec^2
M203 X180 Y180 Z12 E80 ; sets maximum feedrates, mm / sec
M204 P2000 R1250 T2500 ; sets acceleration (P, T) and retract acceleration (R), mm/sec^2
M205 X8.00 Y8.00 Z2.00 E10.00 ; sets the jerk limits, mm/sec
M205 S0 T0 ; sets the minimum extruding and travel feed rate, mm/sec
M107
;TYPE:Custom
M862.3 P "MINI" ; printer model check
G90 ; use absolute coordinates
M83 ; extruder relative mode
M104 S170 ; set extruder temp for bed leveling
M140 S60 ; set bed temp
M109 R170 ; wait for bed leveling temp
M190 S60 ; wait for bed temp
M204 T1250 ; set travel acceleration
G28 ; home all without mesh bed level
G29 ; mesh bed leveling 
M204 T2500 ; restore travel acceleration
M104 S215 ; set extruder temp
G92 E0
G1 Y-2 X179 F2400
G1 Z3 F720
M109 S215 ; wait for extruder temp

; intro line
G1 X170 F1000
G1 Z0.2 F720
G1 X110 E8 F900
G1 X40 E10 F700
G92 E0

M221 S95 ; set flow
G21 ; set units to millimeters
G90 ; use absolute coordinates
M83 ; use relative distances for extrusion
M900 K0.2 ; Filament gcode LA 1.5
; ; Filament gcode LA 1.0
M107
;LAYER_CHANGE
;Z:0.2
;HEIGHT:0.2
;BEFORE_LAYER_CHANGE
G92 E0.0
;0.2


G1 E-3.2 F4200
G1 Z.2 F720
;AFTER_LAYER_CHANGE
;0.2
G1 Z.4
G1 X73.458 Y73.04 F9000
G1 Z.2 F720
G1 E3.2 F2400
M204 P600
;TYPE:Skirt/Brim
;WIDTH:0.42
G1 F1200
G1 X142.088 Y4.017 E3.0519
G1 X144.097 Y3.024 E.07028
G1 X144.933 Y2.927 E.02637
G1 X145.759 Y2.951 E.0259
G1 X147.092 Y3.316 E.04335
G1 X148.298 Y4.055 E.04435
G1 X150.351 Y6.152 E.09199
G1 X150.838 Y6.812 E.02571
G1 X151.189 Y7.403 E.02156
G1 X151.493 Y8.04 E.02212
G1 X151.779 Y8.843 E.02675
G1 X151.972 Y9.663 E.02639
G1 X152.073 Y10.49 E.02612
G1 X152.083 Y11.308 E.02567
G1 X152.001 Y12.152 E.02657
G1 X151.83 Y12.966 E.02609
G1 X151.565 Y13.772 E.02659
G1 X151.229 Y14.511 E.02548
G1 X150.867 Y15.134 E.02259
G1 X150.444 Y15.723 E.02275
G1 X149.918 Y16.321 E.02495
G1 X130.568 Y35.787 E.86059
G1 X175.165 Y80.155 E1.97245
G1 X175.606 Y80.71 E.02222
G1 X175.999 Y81.31 E.02248
G1 X176.325 Y81.928 E.02191
G1 X176.599 Y82.588 E.02241
G1 X176.809 Y83.272 E.02242
G1 X176.953 Y83.956 E.02192
G1 X177.032 Y84.652 E.02196
G1 X177.048 Y85.368 E.02246
G1 X176.992 Y86.106 E.02321
G1 X176.865 Y86.841 E.02339
G1 X176.665 Y87.561 E.02343
G1 X176.403 Y88.242 E.02285
G1 X176.06 Y88.926 E.02402
G1 X175.652 Y89.57 E.02389
G1 X174.894 Y90.481 E.03717
G1 X173.096 Y92.242 E.07892
G1 X172.091 Y92.841 E.03666
G1 X170.996 Y93.175 E.03589
G1 X169.692 Y93.223 E.04093
G1 X168.562 Y92.979 E.03624
G1 X167.06 Y92.133 E.05405
G1 X120.534 Y45.873 E2.05716
G1 X46.66 Y120.169 E3.28508
G1 X93.185 Y166.43 E2.05716
G1 X94.039 Y167.928 E.05405
M73 P0 R83
G1 X94.29 Y169.056 E.03624
G1 X94.249 Y170.361 E.04093
G1 X93.921 Y171.458 E.03589
G1 X93.328 Y172.467 E.0367
G1 X91.493 Y174.352 E.08249
G1 X90.979 Y174.802 E.02142
G1 X90.396 Y175.224 E.02257
G1 X89.793 Y175.578 E.02192
G1 X89.162 Y175.876 E.02189
G1 X88.49 Y176.119 E.02241
G1 X87.815 Y176.295 E.02186
G1 X87.128 Y176.408 E.02184
G1 X86.432 Y176.458 E.02188
G1 X85.671 Y176.439 E.02385
G1 X84.908 Y176.345 E.02412
G1 X83.578 Y175.983 E.04322
G1 X82.957 Y175.718 E.02116
G1 X82.35 Y175.394 E.02156
G1 X81.789 Y175.026 E.02106
G1 X81.252 Y174.602 E.02144
G1 X36.631 Y130.26 E1.97239
G1 X17.258 Y149.739 E.86138
G1 X16.38 Y150.479 E.03602
G1 X15.404 Y151.081 E.03596
G1 X14.706 Y151.395 E.02398
G1 X13.992 Y151.636 E.02364
G1 X13.357 Y151.786 E.02046
G1 X12.695 Y151.884 E.02096
G1 X12.029 Y151.922 E.02092
G1 X11.361 Y151.903 E.02097
G1 X10.612 Y151.81 E.02364
G1 X9.865 Y151.642 E.02403
G1 X8.684 Y151.201 E.03952
G1 X8.071 Y150.879 E.02171
G1 X7.504 Y150.513 E.02115
G1 X6.609 Y149.766 E.03654
G1 X4.848 Y147.969 E.0789
G1 X4.25 Y146.964 E.03666
G1 X3.916 Y145.869 E.03589
G1 X3.868 Y144.565 E.04093
G1 X4.112 Y143.435 E.03624
G1 X4.957 Y141.933 E.05405
G1 X73.416 Y73.083 E3.04425
M204 P1000
G1 X73.683 Y73.349 F9000
M204 P600
M73 P1 R83
G1 F1200
G1 X142.334 Y4.305 E3.05281
G1 X144.174 Y3.394 E.06438
G1 X144.936 Y3.304 E.02405
G1 X145.725 Y3.328 E.02477
G1 X146.92 Y3.652 E.0388
G1 X148.046 Y4.336 E.04131
G1 X150.072 Y6.406 E.09082
G1 X150.528 Y7.027 E.02416
G1 X150.86 Y7.588 E.02044
G1 X151.141 Y8.176 E.02043
G1 X151.414 Y8.94 E.02545
G1 X151.602 Y9.739 E.02573
G1 X151.696 Y10.505 E.0242
G1 X151.707 Y11.283 E.02438
G1 X151.63 Y12.085 E.02527
G1 X151.468 Y12.859 E.02479
G1 X151.218 Y13.625 E.02528
G1 X150.89 Y14.347 E.02484
G1 X150.546 Y14.936 E.0214
G1 X150.154 Y15.482 E.02105
G1 X149.646 Y16.059 E.02412
G1 X130.035 Y35.788 E.87223
G1 X174.877 Y80.399 E1.98326
G1 X175.296 Y80.924 E.02107
G1 X175.67 Y81.494 E.02138
G1 X175.98 Y82.081 E.02081
G1 X176.241 Y82.708 E.02131
G1 X176.442 Y83.358 E.02132
G1 X176.579 Y84.008 E.02083
G1 X176.656 Y84.669 E.02086
G1 X176.671 Y85.349 E.02134
G1 X176.619 Y86.051 E.02207
G1 X176.499 Y86.75 E.02224
G1 X176.31 Y87.435 E.02226
G1 X176.055 Y88.097 E.02227
G1 X175.736 Y88.732 E.02227
G1 X175.34 Y89.358 E.02321
G1 X174.622 Y90.219 E.03514
G1 X172.882 Y91.931 E.07656
G1 X171.959 Y92.487 E.03379
G1 X170.911 Y92.807 E.03435
G1 X169.704 Y92.845 E.03785
G1 X168.671 Y92.617 E.03317
G1 X167.308 Y91.848 E.04908
G1 X120.533 Y45.339 E2.06819
G1 X46.127 Y120.171 E3.30873
G1 X92.902 Y166.68 E2.06819
G1 X93.678 Y168.039 E.04908
G1 X93.912 Y169.07 E.03317
G1 X93.881 Y170.277 E.03785
G1 X93.567 Y171.327 E.03435
G1 X93.016 Y172.254 E.03382
G1 X91.239 Y174.073 E.07973
G1 X90.751 Y174.502 E.02037
G1 X90.197 Y174.903 E.02146
G1 X89.624 Y175.241 E.02084
G1 X89.025 Y175.524 E.02079
G1 X88.386 Y175.757 E.02131
G1 X87.745 Y175.924 E.02078
G1 X87.092 Y176.032 E.02075
G1 X86.414 Y176.081 E.02131
G1 X85.69 Y176.062 E.0227
G1 X84.968 Y175.973 E.02283
G1 X83.714 Y175.631 E.04074
G1 X83.113 Y175.374 E.02049
G1 X82.536 Y175.065 E.02052
G1 X82.003 Y174.715 E.02
G1 X81.494 Y174.313 E.02033
G1 X36.63 Y129.727 E1.9832
G1 X16.997 Y149.467 E.87295
G1 X16.17 Y150.166 E.03395
G1 X15.237 Y150.743 E.03437
G1 X14.576 Y151.041 E.02273
G1 X13.896 Y151.271 E.02252
G1 X13.278 Y151.418 E.01992
G1 X12.649 Y151.509 E.01992
G1 X12.016 Y151.545 E.01988
G1 X11.381 Y151.526 E.01992
G1 X10.669 Y151.437 E.02252
G1 X9.96 Y151.277 E.02276
G1 X8.828 Y150.853 E.03793
G1 X8.255 Y150.549 E.02033
G1 X7.718 Y150.203 E.02003
G1 X6.872 Y149.495 E.03459
G1 X5.159 Y147.755 E.07655
G1 X4.604 Y146.832 E.03379
G1 X4.284 Y145.784 E.03435
G1 X4.245 Y144.577 E.03785
G1 X4.474 Y143.544 E.03317
G1 X5.242 Y142.181 E.04908
G1 X73.641 Y73.391 E3.04158
M204 P1000
G1 X73.908 Y73.657 F9000
M204 P600
G1 F1200
G1 X142.58 Y4.593 E3.05372
G1 X144.251 Y3.765 E.05848
G1 X144.966 Y3.68 E.02259
G1 X145.691 Y3.704 E.02276
G1 X146.748 Y3.989 E.03433
G1 X147.794 Y4.618 E.03824
G1 X149.776 Y6.64 E.0888
G1 X150.209 Y7.228 E.02288
G1 X150.524 Y7.758 E.01934
G1 X150.797 Y8.33 E.01985
G1 X151.056 Y9.056 E.0242
G1 X151.233 Y9.815 E.02441
G1 X151.321 Y10.54 E.02292
G1 X151.33 Y11.277 E.0231
G1 X151.256 Y12.038 E.02397
G1 X151.101 Y12.771 E.02348
G1 X150.863 Y13.497 E.02398
G1 X150.551 Y14.181 E.02356
G1 X150.225 Y14.738 E.02022
G1 X149.854 Y15.254 E.01993
G1 X149.375 Y15.797 E.02271
G1 X129.501 Y35.79 E.88387
G1 X174.589 Y80.642 E1.99407
G1 X174.986 Y81.139 E.01991
G1 X175.341 Y81.679 E.02028
G1 X175.636 Y82.235 E.01972
G1 X175.884 Y82.829 E.0202
G1 X176.075 Y83.444 E.0202
G1 X176.208 Y84.077 E.02027
G1 X176.28 Y84.703 E.01976
G1 X176.294 Y85.348 E.02023
G1 X176.244 Y86.014 E.02093
G1 X176.129 Y86.676 E.02108
G1 X175.949 Y87.325 E.0211
G1 X175.706 Y87.953 E.02111
G1 X175.403 Y88.554 E.02111
G1 X175.028 Y89.145 E.02195
G1 X174.351 Y89.957 E.03315
G1 X172.668 Y91.62 E.07418
G1 X171.785 Y92.151 E.03232
G1 X170.827 Y92.438 E.03134
G1 X169.719 Y92.468 E.03478
G1 X168.782 Y92.255 E.03011
G1 X167.556 Y91.563 E.04416
G1 X120.531 Y44.806 E2.07922
G1 X45.593 Y120.172 E3.33238
M73 P1 R82
G1 X92.618 Y166.929 E2.07922
M73 P2 R82
G1 X93.317 Y168.152 E.04416
G1 X93.535 Y169.087 E.03011
G1 X93.511 Y170.196 E.03478
G1 X93.23 Y171.155 E.03134
G1 X92.703 Y172.042 E.03235
G1 X90.985 Y173.795 E.07696
G1 X90.523 Y174.202 E.01932
G1 X89.983 Y174.593 E.02089
G1 X89.441 Y174.912 E.01972
G1 X88.872 Y175.179 E.01971
G1 X88.266 Y175.399 E.02021
G1 X87.658 Y175.557 E.01969
G1 X87.039 Y175.659 E.01966
G1 X86.397 Y175.704 E.0202
G1 X85.71 Y175.686 E.02155
G1 X85.028 Y175.6 E.02155
G1 X83.85 Y175.279 E.03829
G1 X83.283 Y175.038 E.01932
G1 X82.736 Y174.745 E.01945
G1 X82.217 Y174.405 E.01947
G1 X81.737 Y174.024 E.01921
G1 X36.628 Y129.194 E1.99403
G1 X16.735 Y149.196 E.88452
G1 X15.959 Y149.853 E.03189
G1 X15.07 Y150.404 E.03279
G1 X14.446 Y150.687 E.02148
G1 X13.8 Y150.906 E.02139
G1 X13.215 Y151.046 E.01885
G1 X12.603 Y151.135 E.01939
G1 X12.004 Y151.169 E.01883
G1 X11.402 Y151.15 E.01887
G1 X10.725 Y151.064 E.0214
G1 X10.056 Y150.912 E.0215
G1 X8.993 Y150.513 E.03561
G1 X8.452 Y150.228 E.01918
G1 X7.932 Y149.892 E.0194
G1 X7.134 Y149.224 E.03267
G1 X5.471 Y147.541 E.07417
G1 X4.939 Y146.658 E.03232
G1 X4.653 Y145.7 E.03134
G1 X4.623 Y144.592 E.03478
G1 X4.835 Y143.655 E.03011
G1 X5.528 Y142.429 E.04416
G1 X73.866 Y73.7 E3.0389
M204 P1000
G1 X74.133 Y73.966 F9000
M204 P600
G1 F1200
G1 X142.825 Y4.881 E3.05464
G1 X144.327 Y4.135 E.05257
G1 X144.996 Y4.056 E.02111
G1 X145.657 Y4.08 E.02074
G1 X146.579 Y4.327 E.02992
G1 X147.542 Y4.899 E.03514
G1 X149.481 Y6.875 E.08678
G1 X149.889 Y7.429 E.02159
G1 X150.195 Y7.943 E.01877
G1 X150.452 Y8.483 E.01873
G1 X150.697 Y9.172 E.02295
G1 X150.863 Y9.889 E.02308
G1 X150.945 Y10.575 E.02164
G1 X150.953 Y11.271 E.02182
G1 X150.882 Y11.99 E.02267
G1 X150.735 Y12.682 E.02218
G1 X150.508 Y13.369 E.02268
G1 X150.212 Y14.015 E.02228
G1 X149.904 Y14.539 E.01904
G1 X149.553 Y15.026 E.01882
G1 X149.104 Y15.535 E.02131
G1 X128.968 Y35.791 E.89551
G1 X174.302 Y80.886 E2.00489
G1 X174.676 Y81.354 E.01876
G1 X175.012 Y81.864 E.01917
G1 X175.298 Y82.404 E.01915
G1 X175.532 Y82.966 E.01908
G1 X175.712 Y83.547 E.01909
G1 X175.837 Y84.145 E.01916
G1 X175.904 Y84.737 E.01866
G1 X175.917 Y85.347 E.01913
G1 X175.869 Y85.976 E.01979
G1 X175.759 Y86.602 E.01992
G1 X175.588 Y87.214 E.01994
G1 X175.358 Y87.808 E.01995
G1 X175.071 Y88.375 E.01995
G1 X174.717 Y88.932 E.0207
G1 X174.079 Y89.696 E.03119
G1 X172.452 Y91.31 E.07186
G1 X171.653 Y91.797 E.02935
G1 X170.744 Y92.069 E.02974
G1 X169.735 Y92.091 E.03164
G1 X168.895 Y91.894 E.02707
G1 X167.804 Y91.278 E.0393
G1 X120.53 Y44.273 E2.09025
G1 X45.06 Y120.174 E3.35602
G1 X92.334 Y167.179 E2.09025
G1 X92.957 Y168.266 E.03929
G1 X93.158 Y169.106 E.02707
G1 X93.142 Y170.115 E.03164
G1 X92.875 Y171.025 E.02974
G1 X92.392 Y171.828 E.02938
G1 X90.731 Y173.517 E.07428
G1 X90.294 Y173.902 E.01827
G1 X89.783 Y174.273 E.01977
G1 X89.272 Y174.574 E.01862
G1 X88.719 Y174.835 E.01915
G1 X88.146 Y175.041 E.0191
G1 X87.572 Y175.19 E.01859
G1 X86.987 Y175.285 E.01858
G1 X86.38 Y175.327 E.01909
G1 X85.73 Y175.309 E.02039
G1 X85.089 Y175.228 E.02027
G1 X83.986 Y174.927 E.03584
G1 X83.439 Y174.694 E.01865
G1 X82.921 Y174.417 E.01839
G1 X82.431 Y174.095 E.0184
G1 X81.979 Y173.736 E.01809
G1 X36.627 Y128.66 E2.00487
G1 X16.473 Y148.924 E.8961
G1 X15.748 Y149.541 E.02985
G1 X14.903 Y150.066 E.0312
G1 X14.315 Y150.333 E.02023
G1 X13.704 Y150.542 E.02027
G1 X13.152 Y150.674 E.01779
G1 X12.574 Y150.759 E.01832
G1 X11.991 Y150.792 E.01829
G1 X11.424 Y150.773 E.0178
G1 X10.782 Y150.691 E.02028
G1 X10.153 Y150.548 E.02024
G1 X9.159 Y150.174 E.0333
G1 X8.636 Y149.898 E.01854
G1 X8.147 Y149.582 E.01825
G1 X7.395 Y148.952 E.03077
G1 X5.781 Y147.325 E.07185
G1 X5.293 Y146.526 E.02936
G1 X5.021 Y145.617 E.02974
G1 X5 Y144.608 E.03164
G1 X5.196 Y143.768 E.02707
G1 X5.813 Y142.677 E.0393
G1 X74.091 Y74.008 E3.03623
M204 P1000
G1 X74.358 Y74.274 F9000
M204 P600
M73 P3 R82
G1 F1200
G1 X143.071 Y5.169 E3.05555
G1 X144.405 Y4.506 E.04671
M73 P3 R81
G1 X144.997 Y4.434 E.01871
G1 X145.622 Y4.456 E.01961
G1 X146.41 Y4.665 E.02556
G1 X147.291 Y5.182 E.03201
G1 X149.185 Y7.109 E.08474
G1 X149.57 Y7.63 E.0203
G1 X149.858 Y8.113 E.01764
G1 X150.107 Y8.636 E.01814
G1 X150.332 Y9.268 E.02103
G1 X150.493 Y9.964 E.02242
G1 X150.569 Y10.608 E.02033
G1 X150.576 Y11.264 E.02054
G1 X150.508 Y11.942 E.02137
G1 X150.368 Y12.593 E.02087
G1 X150.154 Y13.24 E.02138
G1 X149.874 Y13.849 E.021
G1 X149.584 Y14.339 E.01786
G1 X149.253 Y14.797 E.01771
G1 X148.832 Y15.273 E.01993
G1 X128.435 Y35.793 E.90716
G1 X174.014 Y81.131 E2.01573
G1 X174.366 Y81.569 E.01761
G1 X174.684 Y82.049 E.01806
G1 X174.954 Y82.557 E.01804
G1 X175.175 Y83.086 E.01797
G1 X175.345 Y83.634 E.01798
G1 X175.464 Y84.197 E.01804
G1 X175.529 Y84.77 E.0181
G1 X175.539 Y85.344 E.01801
G1 X175.493 Y85.937 E.01865
G1 X175.389 Y86.527 E.01877
G1 X175.228 Y87.104 E.01878
G1 X175.01 Y87.662 E.01879
G1 X174.739 Y88.196 E.01879
G1 X174.406 Y88.719 E.01945
G1 X173.807 Y89.435 E.02926
G1 X172.237 Y91 E.06951
G1 X171.478 Y91.462 E.02785
G1 X170.664 Y91.7 E.0266
G1 X169.755 Y91.713 E.02851
G1 X169.009 Y91.534 E.02405
G1 X168.051 Y90.993 E.03449
G1 X120.528 Y43.739 E2.10128
G1 X44.527 Y120.175 E3.37967
G1 X92.05 Y167.428 E2.10128
G1 X92.597 Y168.383 E.03449
G1 X92.781 Y169.127 E.02405
G1 X92.773 Y170.037 E.02852
G1 X92.539 Y170.853 E.0266
G1 X92.081 Y171.614 E.02787
G1 X90.476 Y173.238 E.07159
G1 X90.064 Y173.603 E.01724
G1 X89.583 Y173.953 E.01865
G1 X89.103 Y174.237 E.01751
G1 X88.582 Y174.483 E.01804
G1 X88.043 Y174.678 E.01799
G1 X87.486 Y174.823 E.01803
G1 X86.936 Y174.912 E.01748
G1 X86.364 Y174.951 E.01799
G1 X85.768 Y174.934 E.01868
G1 X85.149 Y174.855 E.01956
G1 X84.121 Y174.575 E.03341
G1 X83.608 Y174.357 E.01747
G1 X83.121 Y174.097 E.01732
G1 X82.659 Y173.794 E.01733
G1 X82.222 Y173.447 E.01749
G1 X36.625 Y128.127 E2.01571
G1 X16.211 Y148.653 E.90768
G1 X15.536 Y149.228 E.02781
G1 X14.735 Y149.728 E.02959
G1 X14.168 Y149.986 E.01954
G1 X13.607 Y150.177 E.01859
G1 X13.088 Y150.302 E.01673
G1 X12.543 Y150.383 E.01726
G1 X11.995 Y150.414 E.01723
G1 X11.445 Y150.396 E.01725
G1 X10.857 Y150.322 E.01858
G1 X10.25 Y150.183 E.01954
G1 X9.303 Y149.826 E.03171
G1 X8.82 Y149.569 E.01715
G1 X8.362 Y149.272 E.01712
G1 X7.656 Y148.68 E.02891
G1 X6.091 Y147.11 E.0695
G1 X5.629 Y146.351 E.02785
G1 X5.391 Y145.537 E.0266
G1 X5.377 Y144.628 E.02852
G1 X5.556 Y143.882 E.02405
G1 X6.098 Y142.925 E.03449
G1 X74.316 Y74.317 E3.03356
M204 P1000
G1 X74.583 Y74.582 F9000
M204 P600
G1 F1200
G1 X143.317 Y5.456 E3.05647
G1 X144.484 Y4.876 E.04087
G1 X144.999 Y4.811 E.0163
G1 X145.588 Y4.832 E.01848
G1 X146.244 Y5.004 E.02126
G1 X147.04 Y5.465 E.02884
G1 X148.891 Y7.345 E.0827
G1 X149.251 Y7.831 E.01899
G1 X149.53 Y8.299 E.01706
G1 X149.762 Y8.789 E.017
G1 X149.967 Y9.364 E.01913
G1 X150.123 Y10.039 E.02174
G1 X150.193 Y10.642 E.01902
G1 X150.198 Y11.256 E.01928
G1 X150.136 Y11.874 E.01946
G1 X150.007 Y12.484 E.01956
G1 X149.799 Y13.111 E.02072
G1 X149.544 Y13.666 E.01914
G1 X149.273 Y14.126 E.01673
G1 X148.953 Y14.568 E.01713
G1 X148.561 Y15.011 E.01854
G1 X128.121 Y35.573 E.90905
G1 X128.036 Y35.696 E.00468
G1 X128.025 Y35.87 E.00548
G1 X128.18 Y36.071 E.00794
G1 X173.727 Y81.375 E2.01426
G1 X174.066 Y81.798 E.017
G1 X174.364 Y82.249 E.01694
G1 X174.617 Y82.726 E.01692
G1 X174.823 Y83.223 E.01686
G1 X174.982 Y83.737 E.01687
G1 X175.093 Y84.265 E.01692
G1 X175.153 Y84.803 E.01698
G1 X175.162 Y85.342 E.01689
G1 X175.118 Y85.898 E.01751
G1 X175.02 Y86.451 E.01761
G1 X174.867 Y86.992 E.01762
G1 X174.663 Y87.516 E.01762
G1 X174.408 Y88.017 E.01763
G1 X174.095 Y88.505 E.01819
G1 X173.534 Y89.174 E.02736
G1 X172.019 Y90.691 E.06723
G1 X171.347 Y91.108 E.02477
G1 X170.584 Y91.331 E.02493
G1 X169.777 Y91.336 E.02531
G1 X169.125 Y91.175 E.02106
G1 X168.299 Y90.707 E.02974
G1 X120.527 Y43.206 E2.11232
G1 X43.994 Y120.177 E3.40332
M73 P4 R81
G1 X91.767 Y167.678 E2.11232
G1 X92.239 Y168.501 E.02974
G1 X92.404 Y169.152 E.02106
