; generated by PrusaSlicer 2.5.0+win64 on 2023-02-28 at 17:50:01 UTC


;
;

;
;
; 

; external perimeters extrusion width = 0.45mm
; perimeters extrusion width = 0.45mm
; infill extrusion width = 0.45mm
; solid infill extrusion width = 0.45mm
; top infill extrusion width = 0.40mm
; first layer extrusion width = 0.42mm

M73 P0 R64
M107
;TYPE:Custom
G90 ; use absolute coordinates
M83 ; extruder relative mode
M104 S170 ; set extruder temp for bed leveling
M140 S60 ; set bed temp
M109 R170 ; wait for bed leveling temp
M190 S60 ; wait for bed temp
G28 ; home all without mesh bed level
G29 ; mesh bed leveling 
M104 S215 ; set extruder temp
G92 E0.0
G1 Y-2.0 X179 F2400
G1 Z3 F720
M109 S215 ; wait for extruder temp

; intro line
G1 X170 F1000
G1 Z0.2 F720
G1 X110.0 E8.0 F900
G1 X40.0 E10.0 F700
G92 E0.0

M221 S95 ; set flow
G21 ; set units to millimeters
G90 ; use absolute coordinates
M83 ; use relative distances for extrusion
M900 K0.2 ; Filament gcode LA 1.5
; ; Filament gcode LA 1.0
M107
;LAYER_CHANGE
;Z:0.2
;HEIGHT:0.2
;BEFORE_LAYER_CHANGE
G92 E0.0
;0.2


G1 E-3.2 F4200
G1 Z.2 F9000
;AFTER_LAYER_CHANGE
;0.2
G1 Z.4
G1 X81.417 Y61.602
G1 Z.2
G1 E3.2 F2400
M204 S800
;TYPE:Skirt/Brim
;WIDTH:0.42
G1 F1200
G1 X82.444 Y60.413 E.04926
G1 X83.506 Y59.531 E.04331
G1 X84.707 Y58.816 E.0438
G1 X85.989 Y58.304 E.0433
G1 X87.524 Y57.968 E.04926
G1 X88.845 Y57.899 E.04147
G1 X90.219 Y58.036 E.0433
G1 X91.444 Y58.346 E.03963
G1 X92.442 Y58.743 E.03367
G1 X93.594 Y59.393 E.04147
G1 X94.594 Y60.166 E.03963
G1 X95.511 Y61.119 E.04147
G1 X96.278 Y62.197 E.04147
G1 X96.899 Y63.431 E.04331
G1 X97.266 Y64.521 E.03609
G1 X110.951 Y113.547 E1.59593
G1 X110.994 Y114.645 E.03448
G1 X110.586 Y116.625 E.06335
G1 X110.162 Y117.792 E.03894
G1 X109.526 Y118.907 E.04027
G1 X108.695 Y119.908 E.04077
G1 X107.666 Y120.773 E.04214
G1 X106.59 Y121.395 E.03895
G1 X105.257 Y121.874 E.04444
G1 X104.298 Y122.051 E.03056
G1 X103.367 Y122.102 E.02924
G1 X73.097 Y121.363 E.9494
G1 X71.307 Y120.483 E.06252
G1 X69.506 Y118.259 E.08973
G1 X68.988 Y116.996 E.04278
G1 X69.028 Y116.269 E.02286
G1 X79.934 Y64.944 E1.64518
G1 X80.19 Y64.003 E.03057
G1 X80.699 Y62.782 E.04147
G1 X81.386 Y61.654 E.04143
M204 S1250
G1 E-2.24 F4200
;WIPE_START
G1 F7200
G1 X82.444 Y60.413 E-.90344
G1 X82.456 Y60.403 E-.00856
;WIPE_END
G1 E-.048 F4200
G1 Z.4 F9000
G1 X83.733 Y63.394
G1 Z.2
G1 E3.2 F2400
M204 S800
G1 F1200
G1 X84.081 Y62.941 E.01791
G1 X84.481 Y62.513 E.01837
G1 X85.146 Y61.956 E.02721
G1 X85.96 Y61.462 E.02985
G1 X86.855 Y61.098 E.03029
G1 X87.382 Y60.959 E.01707
G1 X87.903 Y60.869 E.01658
G1 X88.961 Y60.831 E.03321
G1 X89.845 Y60.943 E.02794
G1 X90.701 Y61.185 E.02787
G1 X91.51 Y61.55 E.02785
G1 X92.253 Y62.028 E.0277
G1 X92.884 Y62.575 E.02617
G1 X93.249 Y62.975 E.01698
G1 X93.569 Y63.394 E.01655
G1 X94.041 Y64.204 E.02939
G1 X94.391 Y65.11 E.03043
G1 X104.504 Y112.668 E1.52448
G1 X105.743 Y112.591 E.03891
M73 P0 R63
G1 X106.179 Y112.669 E.01389
G1 X106.59 Y112.839 E.01395
G1 X107.021 Y113.148 E.01662
G1 X107.563 Y113.787 E.02627
G1 X107.806 Y114.262 E.01673
G1 X107.921 Y114.793 E.01704
G1 X107.904 Y115.283 E.01537
G1 X107.697 Y116.077 E.02573
G1 X107.463 Y116.655 E.01955
G1 X107.142 Y117.209 E.02008
G1 X106.732 Y117.726 E.02068
G1 X106.249 Y118.179 E.02077
G1 X105.715 Y118.551 E.02041
G1 X105.206 Y118.809 E.01789
G1 X104.663 Y119.004 E.01808
G1 X103.792 Y119.161 E.02774
G1 X102.907 Y119.146 E.02776
G1 X102.071 Y118.966 E.02682
G1 X101.253 Y118.614 E.0279
G1 X100.553 Y118.135 E.02663
G1 X99.93 Y117.501 E.02788
G1 X99.443 Y116.755 E.02789
G1 X99.127 Y115.972 E.02649
G1 X88.806 Y67.444 E1.55558
G1 X88.5 Y67.445 E.00957
G1 X78.006 Y116.816 E1.58259
G1 X77.473 Y117.686 E.03199
G1 X76.978 Y118.087 E.01997
G1 X76.421 Y118.349 E.01931
G1 X76.05 Y118.426 E.01188
G1 X74.222 Y118.438 E.05731
G1 X73.685 Y118.318 E.01727
G1 X73.346 Y118.156 E.01176
G1 X73.057 Y117.954 E.01107
G1 X72.453 Y117.249 E.02911
G1 X72.207 Y116.752 E.01737
G1 X72.108 Y116.299 E.01453
G1 X72.111 Y115.84 E.01441
G1 X82.892 Y65.173 E1.6242
G1 X83.195 Y64.342 E.02771
G1 X83.442 Y63.858 E.01704
G1 X83.701 Y63.445 E.01531
M204 S1250
G1 X84.02 Y63.645 F9000
M204 S800
G1 F1200
G1 X84.375 Y63.178 E.01838
G1 X84.749 Y62.779 E.01715
G1 X85.355 Y62.27 E.02482
G1 X86.117 Y61.805 E.028
G1 X86.964 Y61.459 E.02867
G1 X87.454 Y61.329 E.0159
G1 X87.954 Y61.243 E.01592
G1 X88.93 Y61.207 E.03061
G1 X89.758 Y61.31 E.02615
G1 X90.56 Y61.535 E.02611
G1 X91.319 Y61.875 E.0261
G1 X92.017 Y62.322 E.02599
G1 X92.613 Y62.838 E.02471
G1 X92.954 Y63.211 E.01585
G1 X93.262 Y63.614 E.01591
G1 X93.707 Y64.38 E.02779
G1 X94.034 Y65.231 E.02856
G1 X104.203 Y113.066 E1.53336
G1 X105.703 Y112.967 E.04713
M73 P1 R63
G1 X106.056 Y113.026 E.0112
G1 X106.427 Y113.179 E.01259
G1 X106.749 Y113.409 E.01241
G1 X107.261 Y114.014 E.02487
G1 X107.444 Y114.37 E.01254
G1 X107.544 Y114.809 E.01412
G1 X107.534 Y115.21 E.01258
G1 X107.343 Y115.947 E.02387
G1 X107.119 Y116.501 E.01872
G1 X106.824 Y117.007 E.01837
G1 X106.446 Y117.48 E.01897
G1 X106.022 Y117.878 E.01824
G1 X105.532 Y118.221 E.01875
G1 X105.046 Y118.468 E.01708
G1 X104.552 Y118.643 E.01644
G1 X103.745 Y118.786 E.02569
G1 X102.934 Y118.769 E.02544
G1 X102.17 Y118.602 E.02452
G1 X101.421 Y118.276 E.02561
G1 X100.782 Y117.835 E.02434
G1 X100.213 Y117.251 E.02557
G1 X99.77 Y116.567 E.02556
G1 X99.483 Y115.848 E.02428
G1 X89.05 Y66.779 E1.57289
G1 X88.979 Y66.603 E.00597
G1 X88.879 Y66.493 E.00465
G1 X88.684 Y66.423 E.00649
G1 X88.535 Y66.439 E.00471
G1 X88.417 Y66.503 E.00422
G1 X88.33 Y66.591 E.00387
G1 X88.266 Y66.732 E.00485
G1 X77.644 Y116.706 E1.60191
G1 X77.211 Y117.413 E.026
G1 X76.76 Y117.778 E.01819
G1 X76.284 Y117.997 E.01642
G1 X76.03 Y118.049 E.00815
G1 X74.241 Y118.061 E.05607
G1 X73.828 Y117.968 E.01327
G1 X73.524 Y117.823 E.01057
G1 X73.295 Y117.661 E.00879
G1 X72.756 Y117.023 E.02617
G1 X72.569 Y116.646 E.01321
G1 X72.485 Y116.276 E.0119
G1 X72.484 Y115.898 E.01185
G1 X83.251 Y65.289 E1.62233
G1 X83.536 Y64.503 E.02622
G1 X83.766 Y64.051 E.01588
G1 X83.989 Y63.696 E.01316
M204 S1250
G1 X84.308 Y63.896 F9000
M204 S800
G1 F1200
G1 X84.668 Y63.416 E.01883
G1 X85.016 Y63.045 E.01594
G1 X85.586 Y62.569 E.0233
G1 X86.3 Y62.135 E.0262
G1 X87.072 Y61.82 E.02614
G1 X87.542 Y61.696 E.01526
G1 X88.006 Y61.616 E.01474
G1 X88.899 Y61.583 E.02804
G1 X89.671 Y61.678 E.02437
G1 X90.419 Y61.885 E.02436
G1 X91.129 Y62.201 E.02434
G1 X91.782 Y62.617 E.02427
G1 X92.343 Y63.1 E.02322
G1 X92.67 Y63.459 E.01522
G1 X92.955 Y63.833 E.01474
G1 X93.373 Y64.556 E.02619
G1 X93.676 Y65.351 E.02669
G1 X103.903 Y113.466 E1.5423
G1 X105.663 Y113.343 E.05533
G1 X105.97 Y113.394 E.00976
G1 X106.26 Y113.518 E.00987
G1 X106.476 Y113.671 E.00833
G1 X106.96 Y114.242 E.02345
G1 X107.083 Y114.481 E.00845
G1 X107.167 Y114.83 E.01123
G1 X107.163 Y115.139 E.00971
G1 X106.988 Y115.819 E.02199
G1 X106.786 Y116.323 E.01703
G1 X106.505 Y116.804 E.01747
G1 X106.161 Y117.233 E.01724
G1 X105.794 Y117.577 E.01578
G1 X105.348 Y117.891 E.0171
G1 X104.908 Y118.117 E.01549
G1 X104.44 Y118.283 E.01556
G1 X103.733 Y118.409 E.02253
G1 X102.996 Y118.397 E.0231
G1 X102.27 Y118.238 E.02332
G1 X101.591 Y117.939 E.02326
G1 X101.014 Y117.537 E.02205
G1 X100.498 Y117.003 E.02327
G1 X100.098 Y116.379 E.02323
G1 X99.839 Y115.724 E.02209
G1 X89.412 Y66.669 E1.57244
G1 X89.304 Y66.398 E.00915
G1 X89.131 Y66.21 E.008
G1 X88.927 Y66.09 E.00743
G1 X88.684 Y66.043 E.00777
G1 X88.42 Y66.072 E.00832
G1 X88.187 Y66.198 E.0083
G1 X88.014 Y66.374 E.00775
G1 X87.906 Y66.614 E.00823
G1 X77.282 Y116.596 E1.60218
G1 X76.948 Y117.14 E.02001
G1 X76.542 Y117.469 E.01638
G1 X76.151 Y117.644 E.01345
G1 X76.009 Y117.673 E.00453
G1 X74.26 Y117.684 E.05484
G1 X73.971 Y117.619 E.00928
G1 X73.702 Y117.491 E.00935
G1 X73.536 Y117.37 E.00643
G1 X73.061 Y116.8 E.02328
G1 X72.931 Y116.537 E.00921
G1 X72.861 Y116.248 E.0093
G1 X72.858 Y115.955 E.00919
G1 X83.61 Y65.405 E1.62043
G1 X83.878 Y64.663 E.02472
G1 X84.098 Y64.23 E.01524
G1 X84.276 Y63.947 E.01047
M204 S1250
G1 X84.595 Y64.148 F9000
M204 S800
G1 F1200
G1 X84.96 Y63.654 E.01926
G1 X85.282 Y63.312 E.01472
G1 X85.816 Y62.868 E.02179
G1 X86.457 Y62.478 E.02351
G1 X87.181 Y62.182 E.02454
G1 X87.615 Y62.066 E.01407
G1 X88.057 Y61.99 E.01408
G1 X88.869 Y61.959 E.02549
G1 X89.585 Y62.045 E.0226
G1 X90.28 Y62.236 E.0226
G1 X90.939 Y62.527 E.02259
G1 X91.547 Y62.912 E.02255
G1 X92.073 Y63.364 E.02173
G1 X92.376 Y63.694 E.01406
G1 X92.648 Y64.051 E.01408
G1 X93.039 Y64.731 E.02458
G1 X93.31 Y65.444 E.02392
G1 X103.621 Y113.956 E1.55506
G1 X104.057 Y113.833 E.0142
G1 X105.667 Y113.72 E.05061
G1 X105.843 Y113.75 E.00558
G1 X106.095 Y113.857 E.00858
G1 X106.205 Y113.934 E.00421
G1 X106.656 Y114.467 E.02189
G1 X106.734 Y114.626 E.00556
G1 X106.794 Y114.89 E.0085
G1 X106.792 Y115.068 E.00558
G1 X106.633 Y115.691 E.02018
G1 X106.452 Y116.147 E.01536
G1 X106.201 Y116.581 E.01572
G1 X105.892 Y116.968 E.01556
G1 X105.564 Y117.278 E.01413
G1 X105.163 Y117.562 E.01541
G1 X104.748 Y117.775 E.01465
G1 X104.33 Y117.922 E.01386
G1 X103.687 Y118.034 E.02049
G1 X103.024 Y118.02 E.02079
G1 X102.371 Y117.874 E.02097
G1 X101.762 Y117.602 E.02093
G1 X101.246 Y117.24 E.01976
G1 X100.784 Y116.757 E.02097
G1 X100.427 Y116.194 E.0209
G1 X100.197 Y115.602 E.01991
G1 X89.774 Y66.559 E1.57204
G1 X89.642 Y66.23 E.01114
G1 X89.549 Y66.097 E.00507
G1 X89.361 Y65.908 E.00837
G1 X89.094 Y65.751 E.00971
G1 X88.942 Y65.701 E.00504
G1 X88.701 Y65.666 E.00761
G1 X88.459 Y65.679 E.00762
G1 X88.309 Y65.714 E.00483
G1 X88.166 Y65.771 E.00483
G1 X87.958 Y65.898 E.00762
G1 X87.78 Y66.063 E.00762
G1 X87.683 Y66.192 E.00506
G1 X87.546 Y66.496 E.01046
G1 X76.92 Y116.486 E1.60244
G1 X76.686 Y116.868 E.01402
G1 X76.327 Y117.159 E.01451
G1 X76.022 Y117.289 E.01038
G1 X74.279 Y117.307 E.05465
G1 X74.115 Y117.27 E.00529
G1 X73.882 Y117.159 E.00807
G1 X73.781 Y117.083 E.00397
G1 X73.366 Y116.578 E.02049
G1 X73.292 Y116.428 E.00524
G1 X73.233 Y116.18 E.00799
G1 X73.231 Y116.013 E.00526
G1 X83.969 Y65.52 E1.61858
G1 X84.22 Y64.823 E.02322
G1 X84.422 Y64.423 E.01404
G1 X84.563 Y64.199 E.00831
M204 S1250
G1 X84.882 Y64.398 F9000
M204 S800
G1 F1200
G1 X85.241 Y63.905 E.01913
G1 X85.548 Y63.579 E.01405
G1 X86.046 Y63.167 E.02025
G1 X86.639 Y62.809 E.02173
G1 X87.29 Y62.543 E.02204
G1 X87.703 Y62.433 E.01341
G1 X88.108 Y62.364 E.01288
G1 X88.84 Y62.335 E.02298
G1 X89.5 Y62.413 E.02083
G1 X90.142 Y62.587 E.02085
G1 X90.751 Y62.854 E.02084
G1 X91.312 Y63.208 E.02082
G1 X91.803 Y63.628 E.02024
G1 X92.081 Y63.93 E.01288
G1 X92.341 Y64.27 E.01342
G1 X92.692 Y64.88 E.02206
G1 X92.945 Y65.537 E.02206
G1 X103.387 Y114.668 E1.57487
G1 X103.72 Y114.384 E.01372
G1 X103.945 Y114.256 E.00811
G1 X104.106 Y114.208 E.00527
G1 X105.671 Y114.098 E.04919
G1 X105.96 Y114.221 E.00983
G1 X106.352 Y114.691 E.01919
G1 X106.422 Y114.952 E.00847
G1 X106.271 Y115.586 E.02045
G1 X106.108 Y115.993 E.01375
G1 X105.883 Y116.378 E.01396
G1 X105.607 Y116.721 E.01382
G1 X105.316 Y116.993 E.01248
G1 X104.958 Y117.246 E.01374
G1 X104.589 Y117.433 E.01297
G1 X104.221 Y117.561 E.01221
G1 X103.674 Y117.657 E.01742
G1 X103.085 Y117.648 E.01848
G1 X102.505 Y117.521 E.01861
G1 X101.961 Y117.282 E.01862
G1 X101.504 Y116.964 E.01748
G1 X101.09 Y116.537 E.01863
G1 X100.771 Y116.038 E.01858
G1 X100.562 Y115.508 E.01785
G1 X90.14 Y66.468 E1.57195
G1 X90.064 Y66.233 E.00775
M73 P2 R63
G1 X89.963 Y66.03 E.00711
G1 X89.839 Y65.854 E.00673
G1 X89.61 Y65.624 E.01019
G1 X89.434 Y65.5 E.00673
G1 X89.232 Y65.399 E.0071
G1 X89.028 Y65.332 E.00674
G1 X88.718 Y65.288 E.00981
G1 X88.405 Y65.305 E.00982
G1 X88.196 Y65.353 E.00674
G1 X87.996 Y65.432 E.00673
G1 X87.729 Y65.596 E.00982
G1 X87.5 Y65.809 E.00982
G1 X87.37 Y65.98 E.00673
G1 X87.261 Y66.179 E.00709
G1 X87.181 Y66.398 E.00732
G1 X76.558 Y116.377 E1.60206
G1 X76.424 Y116.595 E.00802
G1 X76.113 Y116.847 E.01255
G1 X75.933 Y116.919 E.00606
G1 X74.299 Y116.929 E.05126
G1 X74.033 Y116.802 E.00923
G1 X73.654 Y116.32 E.01924
G1 X73.604 Y116.071 E.00797
G1 X84.329 Y65.635 E1.61675
G1 X84.562 Y64.982 E.02173
G1 X84.85 Y64.449 E.01898
M204 S1250
G1 X85.169 Y64.65 F9000
M204 S800
G1 F1200
G1 X85.285 Y64.465 E.00684
G1 X85.534 Y64.144 E.01274
G1 X85.814 Y63.847 E.0128
G1 X86.274 Y63.467 E.01871
G1 X86.82 Y63.14 E.01995
G1 X87.399 Y62.904 E.0196
G1 X87.775 Y62.803 E.01221
G1 X88.159 Y62.738 E.01222
G1 X88.812 Y62.712 E.0205
G1 X89.417 Y62.781 E.01906
G1 X90.005 Y62.938 E.01909
G1 X90.563 Y63.181 E.01908
G1 X91.079 Y63.504 E.01908
G1 X91.533 Y63.892 E.01873
G1 X91.798 Y64.179 E.01223
G1 X92.033 Y64.489 E.0122
G1 X92.358 Y65.055 E.02048
G1 X92.579 Y65.63 E.01931
G1 X103.027 Y114.789 E1.57577
G1 X103.15 Y114.994 E.00751
M73 P2 R62
G1 X103.282 Y115.075 E.00485
G1 X103.524 Y115.093 E.0076
G1 X103.727 Y114.971 E.00742
G1 X103.927 Y114.7 E.01057
G1 X104.153 Y114.582 E.00799
G1 X105.63 Y114.479 E.04641
G1 X105.714 Y114.515 E.00285
G1 X106.019 Y114.88 E.01494
G1 X106.039 Y114.969 E.00285
G1 X105.908 Y115.48 E.01655
G1 X105.764 Y115.838 E.01211
G1 X105.566 Y116.173 E.0122
G1 X105.322 Y116.473 E.01211
G1 X105.087 Y116.693 E.0101
G1 X104.773 Y116.917 E.01208
G1 X104.452 Y117.081 E.01131
G1 X104.111 Y117.2 E.01132
G1 X103.659 Y117.28 E.01438
G1 X103.144 Y117.275 E.01618
G1 X102.636 Y117.167 E.01626
G1 X102.161 Y116.961 E.01625
G1 X101.735 Y116.665 E.01626
G1 X101.376 Y116.29 E.01626
G1 X101.1 Y115.853 E.01624
G1 X100.919 Y115.387 E.01567
G1 X90.505 Y66.37 E1.57118
G1 X90.414 Y66.09 E.00925
G1 X90.288 Y65.837 E.00887
G1 X90.13 Y65.611 E.00864
G1 X89.854 Y65.334 E.01224
G1 X89.628 Y65.176 E.00864
G1 X89.376 Y65.049 E.00886
G1 X89.114 Y64.964 E.00864
G1 X88.735 Y64.909 E.01201
G1 X88.352 Y64.93 E.01202
G1 X88.083 Y64.992 E.00865
G1 X87.827 Y65.094 E.00864
G1 X87.5 Y65.294 E.01202
G1 X87.219 Y65.555 E.01202
G1 X87.053 Y65.774 E.00864
G1 X86.917 Y66.022 E.00886
G1 X86.818 Y66.293 E.00904
G1 X76.195 Y116.267 E1.6019
G1 X76.162 Y116.322 E.00203
G1 X75.904 Y116.531 E.01041
G1 X75.843 Y116.552 E.00203
G1 X74.363 Y116.552 E.04639
G1 X74.286 Y116.516 E.00268
G1 X74.006 Y116.17 E.01395
G1 X73.986 Y116.087 E.00268
G1 X84.688 Y65.749 E1.6136
G1 X84.904 Y65.141 E.02023
G1 X85.137 Y64.701 E.01561
M204 S1250
G1 X85.456 Y64.901 F9000
M204 S800
G1 F1200
G1 X85.599 Y64.674 E.00842
G1 X85.826 Y64.383 E.01156
G1 X86.079 Y64.115 E.01156
G1 X86.503 Y63.767 E.01719
G1 X86.977 Y63.483 E.01732
G1 X87.509 Y63.265 E.01805
G1 X87.847 Y63.173 E.01098
G1 X88.211 Y63.112 E.01156
G1 X88.786 Y63.088 E.01804
G1 X89.334 Y63.149 E.01731
G1 X89.869 Y63.29 E.01734
G1 X90.376 Y63.509 E.01733
G1 X90.846 Y63.801 E.01733
G1 X91.264 Y64.156 E.01719
G1 X91.514 Y64.427 E.01157
G1 X91.725 Y64.706 E.01098
G1 X92.012 Y65.205 E.01805
G1 X92.213 Y65.723 E.01743
G1 X102.664 Y114.891 E1.57606
G1 X102.756 Y115.105 E.00731
G1 X102.917 Y115.293 E.00775
G1 X103.128 Y115.422 E.00777
G1 X103.375 Y115.477 E.00794
G1 X103.611 Y115.457 E.0074
G1 X103.829 Y115.369 E.0074
G1 X104.014 Y115.219 E.00746
G1 X104.169 Y114.996 E.00851
G1 X104.244 Y114.954 E.00268
G1 X105.515 Y114.865 E.03996
G1 X105.638 Y115.013 E.00604
G1 X105.546 Y115.374 E.01168
G1 X105.42 Y115.681 E.01042
G1 X105.25 Y115.967 E.01044
G1 X105.039 Y116.224 E.01041
G1 X104.857 Y116.395 E.00782
G1 X104.587 Y116.589 E.01044
G1 X104.315 Y116.729 E.0096
G1 X104.001 Y116.839 E.01042
G1 X103.643 Y116.903 E.01142
G1 X103.2 Y116.902 E.01389
G1 X102.765 Y116.813 E.0139
G1 X102.357 Y116.639 E.0139
G1 X101.992 Y116.388 E.01391
G1 X101.683 Y116.07 E.0139
G1 X101.443 Y115.697 E.0139
G1 X101.285 Y115.293 E.01362
G1 X90.87 Y66.273 E1.57129
G1 X90.764 Y65.947 E.01075
G1 X90.613 Y65.643 E.01063
G1 X90.42 Y65.368 E.01055
G1 X90.098 Y65.045 E.01429
G1 X89.823 Y64.851 E.01055
G1 X89.52 Y64.7 E.01062
G1 X89.2 Y64.595 E.01055
G1 X88.751 Y64.53 E.01421
G1 X88.299 Y64.555 E.01422
G1 X87.971 Y64.631 E.01055
G1 X87.658 Y64.755 E.01055
G1 X87.271 Y64.992 E.01422
G1 X86.939 Y65.301 E.01422
G1 X86.735 Y65.569 E.01055
G1 X86.573 Y65.866 E.01062
G1 X86.454 Y66.188 E.01077
G1 X75.847 Y116.091 E1.59963
G1 X75.743 Y116.175 E.00419
G1 X74.496 Y116.175 E.03912
G1 X74.382 Y116.036 E.00564
G1 X85.055 Y65.839 E1.60905
