; generated by PrusaSlicer 2.5.0+win64 on 2023-02-23 at 13:48:17 UTC


;
;

;
;
; 

; external perimeters extrusion width = 0.45mm
; perimeters extrusion width = 0.45mm
; infill extrusion width = 0.45mm
; solid infill extrusion width = 0.45mm
; top infill extrusion width = 0.40mm
; first layer extrusion width = 0.42mm

M73 P0 R40
M107
;TYPE:Custom
G90 ; use absolute coordinates
M83 ; extruder relative mode
M104 S170 ; set extruder temp for bed leveling
M140 S60 ; set bed temp
M109 R170 ; wait for bed leveling temp
M190 S60 ; wait for bed temp
G28 ; home all without mesh bed level
G29 ; mesh bed leveling 
M104 S215 ; set extruder temp
G92 E0.0
G1 Y-2.0 X179 F2400
G1 Z3 F720
M109 S215 ; wait for extruder temp

; intro line
G1 X170 F1000
G1 Z0.2 F720
G1 X110.0 E8.0 F900
G1 X40.0 E10.0 F700
G92 E0.0

M221 S95 ; set flow
G21 ; set units to millimeters
G90 ; use absolute coordinates
M83 ; use relative distances for extrusion
M900 K0.2 ; Filament gcode LA 1.5
; ; Filament gcode LA 1.0
M107
;LAYER_CHANGE
;Z:0.2
;HEIGHT:0.2
;BEFORE_LAYER_CHANGE
G92 E0.0
;0.2


G1 E-3.2 F4200
G1 Z.2 F9000
;AFTER_LAYER_CHANGE
;0.2
G1 Z.4
G1 X65.044 Y59.328
G1 Z.2
G1 E3.2 F2400
M204 S800
;TYPE:Skirt/Brim
;WIDTH:0.42
G1 F1200
G1 X65.968 Y58.316 E.04296
G1 X67.723 Y57.541 E.06015
G1 X106.02 Y57.532 E1.20079
G1 X109.063 Y57.874 E.096
G1 X110.108 Y58.191 E.03425
G1 X110.632 Y58.468 E.01857
G1 X113.12 Y60.213 E.09531
G1 X113.954 Y61.097 E.03811
G1 X114.294 Y61.661 E.02065
G1 X115.538 Y64.578 E.09943
G1 X115.779 Y65.667 E.03496
G1 X115.791 Y66.271 E.01895
G1 X115.436 Y69.581 E.10437
G1 X115.153 Y70.478 E.02949
G1 X89.042 Y117.598 E1.68907
G1 X88.68 Y118.022 E.01749
G1 X85.649 Y120.825 E.12944
G1 X84.614 Y121.452 E.03793
G1 X83.994 Y121.665 E.02056
G1 X79.859 Y122.473 E.13209
G1 X78.747 Y122.481 E.03487
G1 X78.155 Y122.368 E.0189
G1 X74.488 Y121.171 E.12095
G1 X73.926 Y120.901 E.01956
G1 X73.009 Y120.205 E.03608
G1 X69.931 Y116.757 E.14492
G1 X69.524 Y116.119 E.02374
G1 X69.267 Y115.527 E.02024
G1 X69.081 Y114.8 E.02353
G1 X64.167 Y61.44 E1.68012
G1 X64.778 Y59.62 E.06019
M73 P1 R40
G1 X65.004 Y59.373 E.01051
M204 S1250
G1 E-2.24 F4200
;WIPE_START
G1 F7200
G1 X65.968 Y58.316 E-.7926
G1 X66.165 Y58.229 E-.1194
;WIPE_END
G1 E-.048 F4200
G1 Z.4 F9000
G1 X67.147 Y61.001
G1 Z.2
G1 E3.2 F2400
M204 S800
G1 F1200
G1 X67.569 Y60.538 E.01963
G1 X68.108 Y60.254 E.01911
G1 X68.301 Y60.221 E.00613
G1 X70.496 Y60.221 E.06885
G1 X70.928 Y60.347 E.0141
G1 X71.16 Y60.486 E.00848
G1 X71.641 Y60.952 E.021
G1 X71.804 Y61.245 E.01052
G1 X71.864 Y61.426 E.00596
G1 X76.415 Y112.372 E1.60374
G1 X77.597 Y114.054 E.06448
G1 X79.925 Y114.807 E.07671
G1 X81.834 Y114.094 E.06387
G1 X82.772 Y113.061 E.04374
G1 X101.367 Y62.747 E1.68185
G1 X101.944 Y62.083 E.02759
M73 P1 R39
G1 X105.157 Y60.353 E.11441
G1 X105.767 Y60.219 E.01958
G1 X106.396 Y60.271 E.01979
G1 X108.624 Y60.522 E.07031
G1 X109.005 Y60.638 E.01246
G1 X111.451 Y62.316 E.09303
G1 X111.757 Y62.641 E.01397
G1 X113.078 Y65.723 E.10514
G1 X113.111 Y66.128 E.01274
G1 X112.84 Y68.656 E.07973
G1 X112.742 Y68.938 E.00937
G1 X112.554 Y69.228 E.01082
G1 X112.367 Y69.407 E.00812
G1 X111.712 Y69.799 E.02393
G1 X111.51 Y69.857 E.00659
G1 X111.206 Y69.887 E.00958
G1 X110.909 Y69.848 E.00941
G1 X108.876 Y69.086 E.06805
G1 X108.471 Y68.787 E.0158
G1 X108.138 Y68.31 E.01823
G1 X107.997 Y67.865 E.01465
G1 X107.994 Y66.183 E.05273
G1 X107.371 Y65.461 E.02991
G1 X106.596 Y65.247 E.02522
G1 X105.548 Y65.71 E.03591
G1 X87.016 Y115.8 E1.67459
G1 X86.784 Y116.12 E.01238
G1 X83.937 Y118.757 E.12168
G1 X83.333 Y119.063 E.02125
G1 X79.253 Y119.828 E.13014
G1 X78.849 Y119.776 E.01277
G1 X75.245 Y118.563 E.11925
G1 X74.911 Y118.31 E.01314
G1 X72.045 Y115.1 E.1349
G1 X71.736 Y114.388 E.02435
G1 X66.888 Y61.755 E1.65726
G1 X67.041 Y61.165 E.01911
G1 X67.115 Y61.051 E.00425
M204 S1250
G1 X67.433 Y61.249 F9000
M204 S800
G1 F1200
G1 X67.825 Y60.817 E.01829
G1 X68.205 Y60.619 E.01344
G1 X68.319 Y60.598 E.00365
G1 X70.467 Y60.598 E.06733
G1 X70.793 Y60.699 E.01072
G1 X70.916 Y60.774 E.00452
G1 X71.326 Y61.161 E.01768
G1 X71.464 Y61.41 E.00893
G1 X71.498 Y61.518 E.00356
G1 X76.048 Y112.506 E1.60503
G1 X77.361 Y114.374 E.0716
G1 X79.934 Y115.206 E.08478
G1 X82.051 Y114.415 E.07085
G1 X83.1 Y113.261 E.04891
G1 X101.709 Y62.91 E1.68307
G1 X102.153 Y62.399 E.02123
G1 X105.311 Y60.699 E.11245
G1 X105.814 Y60.594 E.01611
G1 X108.563 Y60.895 E.08674
G1 X108.864 Y60.989 E.00987
G1 X111.219 Y62.614 E.08973
G1 X111.458 Y62.872 E.01102
G1 X112.706 Y65.787 E.0994
G1 X112.734 Y66.107 E.01007
G1 X112.467 Y68.595 E.07846
G1 X112.411 Y68.757 E.00538
G1 X112.272 Y68.977 E.00818
G1 X112.151 Y69.098 E.00536
G1 X111.578 Y69.446 E.02102
G1 X111.454 Y69.484 E.00406
G1 X111.191 Y69.509 E.00827
G1 X111.021 Y69.487 E.00538
G1 X109.032 Y68.742 E.06658
G1 X108.759 Y68.542 E.01065
G1 X108.485 Y68.161 E.0147
G1 X108.374 Y67.832 E.01087
G1 X108.371 Y66.043 E.0561
G1 X107.582 Y65.128 E.03788
G1 X106.567 Y64.848 E.03303
G1 X105.25 Y65.429 E.04513
G1 X86.672 Y115.642 E1.67868
G1 X86.494 Y115.879 E.00929
M73 P2 R39
G1 X83.701 Y118.463 E.11931
G1 X83.236 Y118.698 E.01632
G1 X79.269 Y119.451 E.12661
G1 X78.95 Y119.412 E.01008
G1 X75.445 Y118.242 E.11585
G1 X75.179 Y118.044 E.0104
G1 X72.347 Y114.872 E.13334
G1 X72.108 Y114.324 E.01873
G1 X67.266 Y61.754 E1.65526
G1 X67.401 Y61.3 E.01484
M204 S1250
G1 X67.725 Y61.49 F9000
M204 S800
G1 F1200
G1 X68.079 Y61.098 E.01659
G1 X68.341 Y60.975 E.00907
G1 X70.434 Y60.975 E.0656
G1 X70.675 Y61.064 E.00808
G1 X71.012 Y61.372 E.01429
G1 X71.13 Y61.601 E.00808
G1 X75.682 Y112.64 E1.60666
G1 X77.125 Y114.694 E.07872
G1 X79.943 Y115.605 E.09285
G1 X82.269 Y114.736 E.07784
G1 X83.428 Y113.46 E.05407
G1 X102.051 Y63.073 E1.68429
G1 X102.362 Y62.715 E.01487
G1 X105.463 Y61.045 E.11043
G1 X105.854 Y60.969 E.01249
G1 X108.501 Y61.267 E.08352
G1 X108.72 Y61.338 E.00721
G1 X110.985 Y62.911 E.08646
G1 X111.156 Y63.101 E.00802
G1 X112.334 Y65.854 E.09388
G1 X112.357 Y66.087 E.00735
G1 X112.081 Y68.574 E.07846
G1 X111.934 Y68.789 E.00816
G1 X111.434 Y69.097 E.01842
G1 X111.176 Y69.132 E.00816
G1 X109.188 Y68.398 E.06646
G1 X109.047 Y68.296 E.00545
G1 X108.81 Y67.967 E.01269
G1 X108.743 Y67.751 E.00711
G1 X108.749 Y65.904 E.05791
G1 X107.793 Y64.795 E.04591
G1 X106.537 Y64.448 E.04083
G1 X104.952 Y65.149 E.05435
G1 X86.352 Y115.441 E1.68125
G1 X86.224 Y115.615 E.00678
G1 X83.464 Y118.168 E.1179
G1 X83.139 Y118.333 E.01142
G1 X79.281 Y119.073 E.12318
G1 X79.048 Y119.047 E.00734
G1 X75.642 Y117.919 E.1125
G1 X75.446 Y117.777 E.00759
G1 X72.648 Y114.643 E.13173
G1 X72.481 Y114.259 E.01312
G1 X67.645 Y61.755 E1.6532
G1 X67.703 Y61.546 E.0068
M204 S1250
G1 X68.05 Y61.689 F9000
M204 S800
G1 F1200
G1 X68.328 Y61.384 E.01293
G1 X68.401 Y61.352 E.00249
G1 X70.394 Y61.352 E.0625
G1 X70.46 Y61.378 E.00222
G1 X70.728 Y61.623 E.0114
G1 X70.759 Y61.687 E.00222
G1 X75.315 Y112.774 E1.60817
G1 X76.889 Y115.014 E.08585
G1 X79.952 Y116.004 E.10092
G1 X82.486 Y115.058 E.08482
G1 X83.757 Y113.659 E.05923
G1 X102.393 Y63.236 E1.68552
G1 X102.571 Y63.031 E.00852
M73 P3 R39
G1 X105.617 Y61.391 E.10847
G1 X105.84 Y61.347 E.00715
G1 X108.437 Y61.639 E.08193
G1 X108.571 Y61.685 E.00444
G1 X110.749 Y63.205 E.08327
G1 X110.852 Y63.324 E.00493
G1 X111.963 Y65.926 E.0887
G1 X111.98 Y66.069 E.00452
G1 X111.727 Y68.428 E.07438
G1 X111.68 Y68.502 E.00274
G1 X111.291 Y68.742 E.01433
G1 X111.204 Y68.75 E.00274
G1 X109.35 Y68.056 E.06208
G1 X109.305 Y68.02 E.00181
G1 X109.137 Y67.778 E.00923
G1 X109.12 Y67.723 E.00181
G1 X109.126 Y65.764 E.06142
G1 X108.004 Y64.462 E.05391
G1 X106.508 Y64.049 E.04864
G1 X104.653 Y64.868 E.06357
G1 X86.03 Y115.244 E1.68397
G1 X85.953 Y115.352 E.00417
G1 X83.227 Y117.873 E.11643
G1 X83.041 Y117.968 E.00653
G1 X79.287 Y118.695 E.11989
G1 X79.144 Y118.682 E.00451
G1 X75.834 Y117.594 E.10925
G1 X75.712 Y117.509 E.00468
G1 X72.949 Y114.414 E.13005
G1 X72.854 Y114.195 E.00751
G1 X68.031 Y61.746 E1.65143
M204 S1250
G1 X68.411 Y61.852 F9000
M204 S800
G1 F1200
G1 X68.524 Y61.729 E.00522
G1 X70.285 Y61.729 E.05524
G1 X70.394 Y61.828 E.00459
G1 X74.949 Y112.908 E1.60793
G1 X76.653 Y115.334 E.09297
G1 X79.961 Y116.403 E.10899
G1 X82.704 Y115.379 E.0918
G1 X84.085 Y113.859 E.06439
G1 X102.734 Y63.399 E1.68674
G1 X102.78 Y63.347 E.00216
G1 X105.77 Y61.736 E.1065
G1 X105.827 Y61.725 E.0018
G1 X108.369 Y62.011 E.0802
G1 X110.508 Y63.497 E.08167
G1 X110.541 Y63.538 E.00165
G1 X111.595 Y66.008 E.0842
G1 X111.366 Y68.252 E.07073
G1 X111.209 Y68.349 E.00579
G1 X109.565 Y67.734 E.05506
G1 X109.498 Y67.636 E.00371
G1 X109.504 Y65.624 E.06308
G1 X108.214 Y64.129 E.06192
G1 X106.479 Y63.65 E.05645
G1 X104.355 Y64.588 E.07279
G1 X85.703 Y115.055 E1.68698
G1 X82.99 Y117.579 E.11618
G1 X82.943 Y117.603 E.00165
G1 X79.283 Y118.318 E.11692
G1 X76.016 Y117.264 E.10764
M73 P3 R38
G1 X75.974 Y117.237 E.00157
G1 X73.251 Y114.186 E.12823
G1 X73.227 Y114.13 E.0019
G1 X68.417 Y61.912 E1.64419
M204 S1250
; printing object CardStand-Body.stl id:0 copy 0
G1 X69.263 Y62.516 F9000
M204 S800
;TYPE:Perimeter
;WIDTH:0.442643
G1 F1200
G1 X69.665 Y62.516 E.01336
G1 X71.944 Y87.865 E.8459
;WIDTH:0.405869
G1 X74.206 Y113.031 E.76256
;WIDTH:0.374422
G1 X74.221 Y113.125 E.00263
;WIDTH:0.417255
G1 X74.29 Y113.28 E.00528
;WIDTH:0.460088
G1 X74.359 Y113.435 E.00588
;WIDTH:0.50292
G1 X74.429 Y113.59 E.00649
G1 X74.911 Y114.235 E.03079
;WIDTH:0.45613
G1 X75.392 Y114.88 E.02766
;WIDTH:0.40934
G1 X75.874 Y115.525 E.02453
;WIDTH:0.408059
G1 X75.894 Y115.592 E.00213
;WIDTH:0.453569
G1 X75.914 Y115.659 E.0024
;WIDTH:0.499079
G1 X75.934 Y115.727 E.00267
;WIDTH:0.544589
G1 X75.953 Y115.794 E.00293
;WIDTH:0.590099
G1 X75.973 Y115.862 E.0032
;WIDTH:0.635608
G1 X75.993 Y115.929 E.00346
G1 X75.932 Y115.895 E.00347
;WIDTH:0.590099
G1 X75.87 Y115.86 E.0032
;WIDTH:0.544589
G1 X75.809 Y115.826 E.00294
;WIDTH:0.499079
G1 X75.747 Y115.792 E.00267
;WIDTH:0.453569
G1 X75.686 Y115.757 E.0024
;WIDTH:0.408059
G1 X75.624 Y115.723 E.00214
;WIDTH:0.40934
G1 X75.106 Y115.107 E.02453
;WIDTH:0.45613
G1 X74.587 Y114.491 E.02766
;WIDTH:0.50292
G1 X74.069 Y113.875 E.03079
G1 X74.012 Y113.743 E.00551
G1 X73.968 Y113.516 E.00886
;WIDTH:0.458312
G1 X73.925 Y113.288 E.008
;WIDTH:0.413703
G1 X73.881 Y113.06 E.00714
;WIDTH:0.405869
G1 X71.582 Y87.898 E.76256
;WIDTH:0.442643
G1 X69.268 Y62.576 E.84512
M204 S1250
M73 P4 R38
G1 E-2.24 F4200
;WIPE_START
G1 F7200
G1 X69.665 Y62.516 E-.22218
G1 X69.776 Y63.756 E-.68982
;WIPE_END
G1 E-.048 F4200
G1 Z.4 F9000
G1 X76.102 Y116.045
G1 Z.2
G1 E3.2 F2400
M204 S800
;WIDTH:0.645672
G1 F1200
G1 X76.235 Y116.076 E.00685
;WIDTH:0.602318
G1 X76.367 Y116.108 E.00635
;WIDTH:0.558963
G1 X76.5 Y116.139 E.00586
;WIDTH:0.515608
G1 X76.633 Y116.17 E.00537
;WIDTH:0.476583
G1 X79.39 Y117.064 E.10449
;WIDTH:0.520575
G1 X79.624 Y117.134 E.00971
;WIDTH:0.564567
G1 X79.859 Y117.203 E.0106
;WIDTH:0.608558
G1 X80.093 Y117.273 E.0115
G1 X79.985 Y117.314 E.00542
;WIDTH:0.570747
G1 X79.877 Y117.354 E.00506
;WIDTH:0.532936
G1 X79.769 Y117.394 E.00469
;WIDTH:0.495124
G1 X79.365 Y117.483 E.01555
;WIDTH:0.476583
G1 X79.256 Y117.476 E.00393
G1 X76.501 Y116.579 E.10449
;WIDTH:0.472253
G1 X76.407 Y116.518 E.00399
;WIDTH:0.515608
G1 X76.331 Y116.399 E.00553
;WIDTH:0.558963
G1 X76.254 Y116.281 E.00604
;WIDTH:0.602318
G1 X76.178 Y116.163 E.00655
;WIDTH:0.645672
G1 X76.134 Y116.095 E.00405
M204 S1250
G1 E-2.24 F4200
;WIPE_START
G1 F7200
G1 X76.235 Y116.076 E-.05662
G1 X76.367 Y116.108 E-.07571
G1 X76.5 Y116.139 E-.07571
G1 X76.633 Y116.17 E-.07571
G1 X77.712 Y116.52 E-.62827
;WIPE_END
G1 E-.048 F4200
G1 Z.4 F9000
G1 X110.291 Y67.16
G1 Z.2
G1 E3.2 F2400
M204 S800
;WIDTH:0.452572
G1 F1200
G1 X110.291 Y67.017 E.00485
;WIDTH:0.495513
G1 X110.316 Y66.189 E.03119
;WIDTH:0.542853
G1 X110.334 Y65.924 E.01105
;WIDTH:0.590193
G1 X110.353 Y65.659 E.0121
;WIDTH:0.637532
G1 X110.371 Y65.393 E.01315
G1 X110.415 Y65.461 E.004
;WIDTH:0.608948
G1 X110.46 Y65.529 E.00381
;WIDTH:0.580363
G1 X110.605 Y65.815 E.01434
;WIDTH:0.537938
G1 X110.75 Y66.101 E.01321
;WIDTH:0.495513
G1 X110.767 Y66.214 E.0043
G1 X110.672 Y67.303 E.04113
;WIDTH:0.452572
G1 X110.347 Y67.181 E.01181
M204 S1250
G1 E-2.24 F4200
;WIPE_START
G1 F7200
G1 X110.291 Y67.017 E-.09575
G1 X110.316 Y66.189 E-.45932
G1 X110.334 Y65.924 E-.14734
G1 X110.353 Y65.659 E-.14734
G1 X110.36 Y65.546 E-.06226
;WIPE_END
G1 E-.048 F4200
G1 Z.4 F9000
G1 X110.33 Y65.284
G1 Z.2
G1 E3.2 F2400
M204 S800
;WIDTH:0.627388
G1 F1200
G1 X110.263 Y65.234 E.00406
;WIDTH:0.578533
G1 X110.196 Y65.184 E.00372
;WIDTH:0.529677
G1 X110.129 Y65.134 E.00338
;WIDTH:0.480822
G1 X110.062 Y65.084 E.00304
;WIDTH:0.431966
G1 X109.995 Y65.035 E.0027
;WIDTH:0.426444
G1 X109.829 Y64.809 E.00892
;WIDTH:0.469777
G1 X109.664 Y64.584 E.00993
;WIDTH:0.51311
G1 X109.498 Y64.359 E.01093
G1 X109.247 Y64.102 E.01405
;WIDTH:0.468468
G1 X108.996 Y63.844 E.01272
;WIDTH:0.423826
G1 X108.745 Y63.587 E.01138
;WIDTH:0.389294
G1 X108.478 Y63.413 E.00917
;WIDTH:0.437044
G1 X108.218 Y63.316 E.00909
;WIDTH:0.484794
G1 X107.958 Y63.22 E.01019
G1 X107.508 Y63.115 E.017
;WIDTH:0.448375
G1 X107.057 Y63.009 E.01559
;WIDTH:0.411955
G1 X106.607 Y62.904 E.01419
;WIDTH:0.376499
G1 X106.429 Y62.885 E.00497
;WIDTH:0.420604
G1 X106.256 Y62.919 E.00554
;WIDTH:0.464708
G1 X106.083 Y62.953 E.00619
G1 X105.026 Y63.444 E.04086
;WIDTH:0.419135
G1 X103.97 Y63.935 E.03645
;WIDTH:0.400728
G1 X103.834 Y64.039 E.00509
;WIDTH:0.427894
G1 X103.698 Y64.143 E.00548
G1 X103.657 Y64.235 E.00321
;WIDTH:0.42215
G1 X85.155 Y114.298 E1.683
;WIDTH:0.452753
G1 X84.982 Y114.657 E.0136
G1 X84.214 Y115.399 E.03638
;WIDTH:0.406377
G1 X83.447 Y116.141 E.03226
;WIDTH:0.385564
G1 X83.193 Y116.358 E.0095
;WIDTH:0.431677
G1 X82.967 Y116.52 E.009
;WIDTH:0.47779
G1 X82.74 Y116.681 E.01007
;WIDTH:0.523903
G1 X82.513 Y116.843 E.01114
G1 X82.055 Y116.953 E.01886
;WIDTH:0.485057
G1 X81.596 Y117.062 E.01734
;WIDTH:0.446211
G1 X81.137 Y117.172 E.01582
;WIDTH:0.407365
G1 X80.678 Y117.281 E.01429
;WIDTH:0.41183
G1 X80.609 Y117.273 E.00214
;WIDTH:0.455142
G1 X80.54 Y117.264 E.0024
;WIDTH:0.498454
G1 X80.47 Y117.256 E.00265
;WIDTH:0.541766
G1 X80.401 Y117.247 E.0029
;WIDTH:0.585078
G1 X80.332 Y117.239 E.00315
;WIDTH:0.62839
G1 X80.262 Y117.23 E.0034
G1 X80.317 Y117.187 E.0034
;WIDTH:0.585078
G1 X80.372 Y117.143 E.00315
;WIDTH:0.541766
G1 X80.426 Y117.099 E.0029
;WIDTH:0.498454
G1 X80.481 Y117.056 E.00265
;WIDTH:0.455142
G1 X80.536 Y117.012 E.0024
;WIDTH:0.41183
G1 X80.59 Y116.969 E.00214
;WIDTH:0.407365
G1 X81.038 Y116.822 E.01429
;WIDTH:0.446211
G1 X81.487 Y116.675 E.01582
;WIDTH:0.485057
G1 X81.935 Y116.529 E.01734
;WIDTH:0.523903
G1 X82.383 Y116.382 E.01886
G1 X82.594 Y116.278 E.00941
;WIDTH:0.47779
G1 X82.806 Y116.175 E.00851
;WIDTH:0.431677
G1 X83.017 Y116.071 E.00761
;WIDTH:0.385564
G1 X83.222 Y115.918 E.00729
;WIDTH:0.406377
G1 X83.956 Y115.144 E.03226
;WIDTH:0.452753
G1 X84.691 Y114.369 E.03638
G1 X84.799 Y114.166 E.00783
;WIDTH:0.42215
G1 X103.302 Y64.104 E1.683
;WIDTH:0.427894
G1 X103.376 Y63.911 E.00662
G1 X103.6 Y63.775 E.0084
;WIDTH:0.400728
G1 X103.825 Y63.638 E.0078
;WIDTH:0.419135
G1 X104.861 Y63.106 E.03645
;WIDTH:0.464708
G1 X105.897 Y62.574 E.04086
G1 X106.021 Y62.55 E.00441
G1 X106.345 Y62.564 E.01139
;WIDTH:0.420122
G1 X106.67 Y62.578 E.01019
;WIDTH:0.411955
G1 X107.127 Y62.648 E.01419
;WIDTH:0.448375
G1 X107.584 Y62.718 E.01559
;WIDTH:0.484794
G1 X108.042 Y62.787 E.017
G1 X108.144 Y62.826 E.00401
G1 X108.419 Y62.997 E.0119
;WIDTH:0.449591
G1 X108.694 Y63.169 E.01095
;WIDTH:0.414388
G1 X108.968 Y63.34 E.01
;WIDTH:0.423826
G1 X109.249 Y63.564 E.01138
;WIDTH:0.468468
G1 X109.53 Y63.788 E.01272
;WIDTH:0.51311
G1 X109.811 Y64.013 E.01405
G1 X109.892 Y64.113 E.00504
G1 X110.022 Y64.361 E.01093
;WIDTH:0.469777
G1 X110.151 Y64.609 E.00993
;WIDTH:0.426444
G1 X110.28 Y64.857 E.00892
;WIDTH:0.431966
G1 X110.29 Y64.942 E.00278
;WIDTH:0.480822
G1 X110.3 Y65.028 E.00313
;WIDTH:0.529677
G1 X110.31 Y65.113 E.00348
;WIDTH:0.578533
G1 X110.32 Y65.199 E.00383
;WIDTH:0.627388
G1 X110.323 Y65.225 E.00127
M204 S1250
G1 E-2.24 F4200
;WIPE_START
G1 F7200
G1 X110.263 Y65.234 E-.03371
